!!!COM: Beethoven, Ludwig van
!!!CDT: 1770///-1827///
!!!ODT: 1825///-1826///
!!!OTL: String Quartet No. 14 in C-sharp Minor, Op. 131
!!!OPS: Op. 131
!!!OMV: Mvmt. 1
!!!OMD: Adagio ma non troppo e molto espressivo
!!!PDT: 1827///
!!!PPP: Mainz
!!!ODE: Dem Baron von Stutterheim gewidmet
!!!MPD: 1825///-1826///
**kern	**dynam	**kern	**dynam	**kern	**dynam	**kern	**dynam
*staff4	*staff4	*staff3	*staff3	*staff2	*staff2	*staff1	*staff1
*Icello	*Icello	*Iviola	*Iviola	*Ivioln	*Ivioln	*Ivioln	*Ivioln
*>[A,B,B1,B,B2,C]	*>[A,B,B1,B,B2,C]	*>[A,B,B1,B,B2,C]	*>[A,B,B1,B,B2,C]	*>[A,B,B1,B,B2,C]	*>[A,B,B1,B,B2,C]	*>[A,B,B1,B,B2,C]	*>[A,B,B1,B,B2,C]
*>norep[A,B,B2,C]	*>norep[A,B,B2,C]	*>norep[A,B,B2,C]	*>norep[A,B,B2,C]	*>norep[A,B,B2,C]	*>norep[A,B,B2,C]	*>norep[A,B,B2,C]	*>norep[A,B,B2,C]
*>A	*>A	*>A	*>A	*>A	*>A	*>A	*>A
*clefF4	*clefF4	*clefC3	*clefC3	*clefG2	*clefG2	*clefG2	*clefG2
*k[f#c#g#]	*k[f#c#g#]	*k[f#c#g#]	*k[f#c#g#]	*k[f#c#g#]	*k[f#c#g#]	*k[f#c#g#]	*k[f#c#g#]
*A:	*A:	*A:	*A:	*A:	*A:	*A:	*A:
*M2/4	*M2/4	*M2/4	*M2/4	*M2/4	*M2/4	*M2/4	*M2/4
*MM72	*MM72	*MM72	*MM72	*MM72	*MM72	*MM72	*MM72
8r	.	8r	.	8r	.	8r	.
8AAn/	p	[4.E/	p	(4.c#/	p	(4a/	p
8AA/L	.	.	.	.	.	.	.
8AA/J	.	.	.	.	.	16b/LL	.
.	.	.	.	.	.	16a/JJ	.
=2	=2	=2	=2	=2	=2	=2	=2
8r	.	2E/_	.	8d/)	.	8g#/)	.
8BB/	.	.	.	(4g#/	.	8r	.
8BB/L	.	.	.	.	.	4r	.
8BB/J	.	.	.	16a/LL	.	.	.
.	.	.	.	16g#/JJ	.	.	.
=3	=3	=3	=3	=3	=3	=3	=3
8r	.	2E/_	.	8dd\)	.	8r	.
8GG#/	.	.	.	(4.B/	.	(4dd\	.
8GG#/L	.	.	.	.	.	.	.
8GG#/J	.	.	.	.	.	16ee\LL	.
.	.	.	.	.	.	16dd\JJ	.
=4	=4	=4	=4	=4	=4	=4	=4
8r	.	2E/_	.	8A/)	.	8cc#\)	.
8AA/	.	.	.	(4cc#\	.	8r	.
8AA/L	.	.	.	.	.	4r	.
8AA/J	.	.	.	16dd\LL	.	.	.
.	.	.	.	16cc#\JJ	.	.	.
=5	=5	=5	=5	=5	=5	=5	=5
8r	.	(4E/]	.	4aa\)	.	8r	.
8CC#/	.	.	.	.	.	(4aa\	.
8CC#/L	.	[4A/)	.	4r	.	.	.
8CC#/J	.	.	.	.	.	16ggn\LL	.
.	.	.	.	.	.	16ee#\JJ)	.
=6	=6	=6	=6	=6	=6	=6	=6
8r	.	(8A/]	.	8r	.	(8ee#\L	.
8DD/	.	[4.F#/)	.	(4ff#\	.	8ff#\J)	.
8AA#/L	.	.	.	.	.	4r	.
8AA#/J	.	.	.	16ee\LL	.	.	.
.	.	.	.	16cc#\JJ	.	.	.
=7	=7	=7	=7	=7	=7	=7	=7
8BB/L	.	8F#/L]	.	8dd#/L)	.	8r	.
8EE/J	.	(8G#/J	.	(8B/J	.	(16een\LL	.
.	.	.	.	.	.	16dd\JJ	.
8AAn/L	.	8A/L)	.	8c#/L)	.	8cc#\)	.
8FF#/J	.	(8D#/J	.	(16b/L	.	8r	.
.	.	.	.	16a/JJ	.	.	.
=8	=8	=8	=8	=8	=8	=8	=8
8EE/	.	8E/)	.	8g#/)	.	8r	.
8r	.	8r	.	4r	.	(16f#/LL	.
.	.	.	.	.	.	16e/JJ	.
4r	.	4r	.	.	.	8d#/)	.
.	.	.	.	(16dn/LL	.	8r	.
.	.	.	.	16B/JJ	.	.	.
=9	=9	=9	=9	=9	=9	=9	=9
8r	.	(2E/ 2c#/	.	8A/)	.	2r	.
8AA/ 8E/	.	.	.	(4A/	.	.	.
8AA/L 8E/	.	.	.	.	.	.	.
8AA/J 8E/	.	.	.	16B/LL	.	.	.
.	.	.	.	16A/JJ	.	.	.
=10	=10	=10	=10	=10	=10	=10	=10
8r	.	2E/) 2d/	.	8G#/)	.	8r	.
8BB/ 8E/	.	.	.	8r	.	(4g#/	.
8BB/L 8E/	.	.	.	4r	.	.	.
8BB/J 8E/	.	.	.	.	.	16a/LL	.
.	.	.	.	.	.	16g#/JJ	.
=11	=11	=11	=11	=11	=11	=11	=11
8r	.	(2E/ 2B/	.	8r	.	8dd\)	.
8GG#/ 8E/	.	.	.	(4d/	.	8r	.
8GG#/L 8E/	.	.	.	.	.	4r	.
8GG#/J 8E/	.	.	.	16e/LL	.	.	.
.	.	.	.	16d/JJ	.	.	.
=12	=12	=12	=12	=12	=12	=12	=12
8r	.	[2E/) [2A/	.	8c#/)	.	8r	.
8AA/ 8E/	.	.	.	[4.c#/	.	(4cc#\	.
8AA/L 8E/	.	.	.	.	.	.	.
8AA/J 8E/	.	.	.	.	.	16dd\LL	.
.	.	.	.	.	.	16cc#\JJ	.
=13	=13	=13	=13	=13	=13	=13	=13
8r	.	8E/L] 8A/]	.	8c#/]	.	8aa\)	.
8CC#/ 8AA/	.	(8E/J	.	(4a/	.	8r	.
8CC#/L 8AA/	.	[4A/)	.	.	.	4r	.
8CC#/J 8AA/	.	.	.	16gn/LL	.	.	.
.	.	.	.	16e#/JJ)	.	.	.
=14	=14	=14	=14	=14	=14	=14	=14
8r	.	(8A/]	.	(8e#/L	.	8r	.
8DD/	.	[4.F#/)	.	8f#/J)	.	(4ff#\	.
8AA#/L	.	.	.	4r	.	.	.
8AA#/J	.	.	.	.	.	16ee\LL	.
.	.	.	.	.	.	16cc#\JJ	.
=15	=15	=15	=15	=15	=15	=15	=15
8BB/L	.	8F#/L]	.	8r	.	8dd#/L)	.
8EE/J	.	(8G#/J	.	(16een\LL	.	(8B/J	.
.	.	.	.	16dd\JJ	.	.	.
8AAn/L	.	8E/L)	.	8cc#\)	.	8c#/L)	.
8FF#/J	.	(8D#/J	.	8r	.	(16b/L	.
.	.	.	.	.	.	16a/JJ	.
=16	=16	=16	=16	=16	=16	=16	=16
8EE/	.	8E/)	.	8r	.	8g#/)	.
8r	.	8r	.	(16f#/LL	.	4r	.
.	.	.	.	16e/JJ	.	.	.
4r	.	4r	.	8d#/)	.	.	.
.	.	.	.	8r	.	(16dn/LL	.
.	.	.	.	.	.	16B/JJ	.
=17	=17	=17	=17	=17	=17	=17	=17
8r	.	8r	.	8r	.	8G#/)	.
8EE/	.	[4.E/	.	(4G#/	.	(4b\	.
8EE/L	.	.	.	.	.	.	.
8EE/J	.	.	.	16A/LL	.	16cc#\LL	.
.	.	.	.	16G#/JJ)	.	16b\JJ)	.
=18	=18	=18	=18	=18	=18	=18	=18
8r	.	2E/_	.	(4G#/	.	(4b\	.
8D\	.	.	.	.	.	.	.
8C#/L	.	.	.	8A/L	.	8cc#\L)	.
8GG#/J	.	.	.	8B/J)	.	8dd\J	.
=19	=19	=19	=19	=19	=19	=19	=19
8AA/L	.	8E/]	.	8c#/	.	8cc#\	.
8AA/J	.	[4.A\ [4.a\	.	(4c#/	.	(4ee\	.
8AA/L	.	.	.	.	.	.	.
8AA/J	.	.	.	16d/LL	.	16ff#\LL	.
.	.	.	.	16c#/JJ)	.	16ee\JJ)	.
=20	=20	=20	=20	=20	=20	=20	=20
8r	.	2A\_ 2a\_	.	(4c#/	.	(4ee\	.
8Gn\	.	.	.	.	.	.	.
8F#\L	.	.	.	8d/L	.	8ff#\L	.
8C#\J	.	.	.	8e/J)	.	8ggn\J)	.
=21	=21	=21	=21	=21	=21	=21	=21
8D\L	.	(8A\L] 8a\]	.	(4.d/	.	(4ff#\	.
8D\J	.	8f#\J	.	.	.	.	.
8BB/L	.	4e\)	.	.	.	4gg#\)	.
8E/J	.	.	.	8B/	.	.	.
=22	=22	=22	=22	=22	=22	=22	=22
8r	.	(8C#/	.	8e/	.	(8gg#\	.
8C#/	.	4E/	.	[4.A/	.	4aa\	.
8CC#/L	.	.	.	.	.	.	.
8DD/J	.	8F#/	.	.	.	16ff#\LL	.
.	.	.	.	.	.	16dd\JJ	.
=23	=23	=23	=23	=23	=23	=23	=23
8EE/L	p	8E/L)	p	8A/L])	p	8cc#'\L)	p
8DD/J	.	(8F#/J	.	(16f#/L	.	(16dd\L	.
.	.	.	.	16d/JJ	.	16b\JJ	.
8EE/L	.	8E/L)	.	8c#/L)	.	8a/L)	.
8EE/J	.	(16E/L 16d/	.	[8e/J	.	(16b/L	.
.	.	16B/JJ	.	.	.	16g#/JJ	.
=24	=24	=24	=24	=24	=24	=24	=24
8AA/	.	8E/) 8c#/	.	8e/]	.	8a/L)	.
4r	.	4r	.	4r	.	(16f#/L	.
.	.	.	.	.	.	16e/JJ	.
.	.	.	.	.	.	4d#/)	.
16BB/LL	.	[8E/	.	(16dn/LL	.	.	.
16GG#/JJ	.	.	.	16B/JJ	.	.	.
=25	=25	=25	=25	=25	=25	=25	=25
8EE/L	.	8E/]	.	8G#/)	.	8r	.
8EE/J	.	(4G#/	.	(4b\	.	(8e/	.
8EE/L	.	.	.	.	.	[4ee\)	.
8EE/J	.	16A/LL	.	16cc#\LL	.	.	.
.	.	16G#/JJ)	.	16b\JJ)	.	.	.
=26	=26	=26	=26	=26	=26	=26	=26
8r	.	(4G#/	.	(4b\	.	2ee\_	.
8D\	.	.	.	.	.	.	.
8C#/L	.	8A/L	.	8cc#\L	.	.	.
8GG#/J	.	8B/J)	.	8dd\J)	.	.	.
=27	=27	=27	=27	=27	=27	=27	=27
8AA\L	.	8A/	.	8cc#\	.	8ee\]	.
8A\J	.	(4c#\	.	[4.a/	.	(4ee\	.
8A\L	.	.	.	.	.	.	.
8A\J	.	16d\LL	.	.	.	16ff#\LL	.
.	.	16c#\JJ)	.	.	.	16ee\JJ)	.
=28	=28	=28	=28	=28	=28	=28	=28
8r	.	(4c#\	.	2a/]	.	(4ee\	.
8Gn\	.	.	.	.	.	.	.
8F#\L	.	8d\L	.	.	.	8ff#\L	.
8C#\J	.	8e\J)	.	.	.	8ggn\J)	.
=29	=29	=29	=29	=29	=29	=29	=29
8D\L	.	8d\	.	(8a/L	.	(4ff#\	.
8D\J	.	4d\	.	8f#/J	.	.	.
8BB/L	.	.	.	[4e/)	.	4gg#\)	.
8E/J	.	(8B/	.	.	.	.	.
=30	=30	=30	=30	=30	=30	=30	=30
8r	.	(8C#/)	.	(4e/]	.	(8gg#\	.
8C#/	.	4E/	.	.	.	4aa\	.
8CC#/L	.	.	.	[4A/)	.	.	.
8DD/J	.	8F#/	.	.	.	16ff#\LL	.
.	.	.	.	.	.	16dd\JJ	.
=31	=31	=31	=31	=31	=31	=31	=31
8EE/L	p	8E/L)	p	8A/L]	p	8cc#\L)	p
8DD/J	.	(8F#/J	.	(16B/L	.	(16dd\L	.
.	.	.	.	16d/JJ	.	16b\JJ	.
8EE/L	.	8E/L)	.	8c#/L)	.	8a/L)	.
8EE/J	.	(16E/L 16d/	.	[8e/J	.	(16b/L	.
.	.	16E/JJ) 16B/	.	.	.	16g#/JJ)	.
=32	=32	=32	=32	=32	=32	=32	=32
8AA/	.	8E/ 8c#/	.	8e/]	.	(8a/	.
8r	.	8r	.	8r	.	[4.e/)	.
8r	.	8r	.	4r	.	.	.
[8AA/	.	[8C#/	.	.	.	.	.
=33	=33	=33	=33	=33	=33	=33	=33
(4AA/]	.	(4C#/]	.	(4A/	.	2e/_	.
8..GG#/L	.	8..D/L	.	8..B/L	.	.	.
32AA/Jkk)	.	32C#/Jkk)	.	32A/Jkk)	.	.	.
=34	=34	=34	=34	=34	=34	=34	=34
8BB/	.	8D/	.	8G#/	.	16e\LL]	.
.	.	.	.	.	.	(16ff#\	.
8r	.	4r	.	4r	.	16ee\	.
.	.	.	.	.	.	16dd#\JJ	.
4r	.	.	.	.	.	16ddn/LL	.
.	.	.	.	.	.	16b/	.
.	.	[8D/	.	[8B/	.	16g#/	.
.	.	.	.	.	.	16fn/JJ)	.
=35	=35	=35	=35	=35	=35	=35	=35
(4GG#/	.	(4D/]	.	(4B/]	.	[2e/	.
8..FF#/L	.	8..E/L	.	8..c#/L	.	.	.
32GG#/Jkk)	.	32D/Jkk)	.	32B/Jkk)	.	.	.
=36	=36	=36	=36	=36	=36	=36	=36
(16GG#/LL	.	(16D/LL	.	(16B/LL	.	16e\LL]	.
16AA/JJ)	.	16C#/JJ)	.	16A/JJ)	.	(16ee\	.
8r	.	8r	.	8r	.	16bb\	.
.	.	.	.	.	.	16bb-\JJ	.
4r	.	4r	.	4r	.	16aa\LL	.
.	.	.	.	.	.	16ee\	.
.	.	.	.	.	.	16cc#\	.
.	.	.	.	.	.	16b-\JJ)	.
=37	=37	=37	=37	=37	=37	=37	=37
(4c#\	.	2r	.	(4e/	.	(4a/	.
8..e\L	.	.	.	8..g#/L	.	4aa\)	.
32c#\Jkk)	.	.	.	32e#/Jkk)	.	.	.
=38	=38	=38	=38	=38	=38	=38	=38
8d\	.	(4dd\	.	(8f#\L	.	(4ff#\	.
8r	.	.	.	8ff#\J	.	.	.
4r	.	8..cc#\L	.	8..een\L	.	[4fff#\)	.
.	.	32a#\Jkk)	.	32cc#\Jkk)	.	.	.
=39	=39	=39	=39	=39	=39	=39	=39
4r	.	(4b\	.	(8dd#\L	.	(8fff#\L]	.
.	.	.	.	16.ee\L	.	8ggg#\J	.
.	.	.	.	32ddn\JJk)	.	.	.
4f#\	.	8.an\L)	.	(8cc#\L	.	8.aaa\L	.
.	.	.	.	8dd#\J)	p	.	.
.	.	16b\Jk	p	.	.	16aa\Jk)	p
=40	=40	=40	=40	=40	=40	=40	=40
(16f#\LK	.	(8b\L	.	(16dd#\LL	.	(16aa\LL	.
8e\)	.	.	.	16ee\	.	16gg#\	.
.	.	16f#\L	.	16a\	.	16dd#\	.
16e\Jk	.	16B\JJ)	.	16g#\JJ)	.	16ee\JJ)	.
(16e\LL	.	(8B\L	.	(8.g#\L	.	(16.ee\LL	.
16d\)	.	.	.	.	.	.	.
.	.	.	.	.	.	32ff#\k)	.
(16d\	.	16e\L	.	.	.	(16.ff#\	.
16B\JJ)	.	16d\JJ)	.	16ee\Jk)	.	.	.
.	.	.	.	.	.	32gg#\JJk)	.
=41	=41	=41	=41	=41	=41	=41	=41
*	*	*	*	*^	*	*	*
8A\	p	(8c#\	p	(4cc#/	2ee\	p	(4aa\	p
[4.e\	.	8a\	.	.	.	.	.	.
.	.	[8b\	.	[8ddn/	.	.	[8gg#\	.
.	.	16.b\LL]	.	16.ddn/LL]	.	.	16.gg#\LL]	.
.	.	32a\JJk)	.	32cc#/JJk)	.	.	32aa\JJk)	.
*	*	*	*	*v	*v	*	*	*
=42	=42	=42	=42	=42	=42	=42	=42
16e\LL]	.	8g#\	.	8b\ 8ee\	.	8bb\	.
(16f#\JJ	.	.	.	.	.	.	.
16e\LL	.	8r	.	8r	.	8r	.
16d#\JJ	.	.	.	.	.	.	.
16dn\LL	.	4r	.	4r	.	4r	.
16B\JJ	.	.	.	.	.	.	.
16G#\LL	.	.	.	.	.	.	.
16Fn\JJ	.	.	.	.	.	.	.
=43	=43	=43	=43	=43	=43	=43	=43
8E\)	.	(4g#\	.	2dd\ 2ee\	.	(4bb\	.
8r	.	.	.	.	.	.	.
8r	.	8..f#\L	.	.	.	8..ccc#\L	.
[8e\	.	.	.	.	.	.	.
.	.	32g#\Jkk)	.	.	.	32bb\Jkk)	.
=44	=44	=44	=44	=44	=44	=44	=44
16e\LK]	.	8a\	.	8cc#\ 8ee\	.	8aa\	.
(8a\	.	.	.	.	.	.	.
.	.	8r	.	8r	.	8r	.
16g#\Jk	.	.	.	.	.	.	.
16gn\LL	.	4r	.	4r	.	4r	.
16e\JJ	.	.	.	.	.	.	.
16c#\LL	.	.	.	.	.	.	.
16B-\JJ)	.	.	.	.	.	.	.
=45	=45	=45	=45	=45	=45	=45	=45
(16A\LL	.	2r	.	2r	.	(8ee\	.
16Gn\JJ	.	.	.	.	.	.	.
16E\LL	.	.	.	.	.	[8ggn\)	.
16D\JJ	.	.	.	.	.	.	.
16C#\LL	.	.	.	.	.	(8.gg\L]	.
16A\JJ	.	.	.	.	.	.	.
16E\LL	.	.	.	.	.	.	.
16C#\JJ)	.	.	.	.	.	32ff#\LL	.
.	.	.	.	.	.	32ee#\JJJ)	.
=46	=46	=46	=46	=46	=46	=46	=46
8D\	.	16r	.	(8f#/	.	(16ee#\LL	.
.	.	(16d\	.	.	.	16ff#\JJ)	.
8r	.	16c#/LL	.	[8ee\)	.	8r	.
.	.	16B/JJ	.	.	.	.	.
4r	.	16A#\LL	.	(8.ee\L]	.	4r	.
.	.	16f#\JJ	.	.	.	.	.
.	.	16c#/LL	.	.	.	.	.
.	.	16A#/JJ)	.	32dd#\LL	.	.	.
.	.	.	.	32cc#\JJJ)	.	.	.
=47	=47	=47	=47	=47	=47	=47	=47
8r	.	(16B\LL	.	(16cc#\LL	.	2r	.
.	.	16f#\JJ)	.	16dd#\JJ)	.	.	.
(16GG#/LL	.	8r	.	(16cc#\LL	.	.	.
16E/JJ)	.	.	.	16ddn\JJ)	.	.	.
8r	.	(16G#/LL	.	(16b\LL	.	.	.
.	.	16An/JJ)	.	16cc#\JJ)	.	.	.
(16FF#/LL	.	(16A\LL	.	(16cc#\LL	.	.	.
16D#/JJ)	.	16f#\JJ)	.	32b\L	.	.	.
.	.	.	.	32a\JJJ)	.	.	.
=48	=48	=48	=48	=48	=48	=48	=48
8r	.	(16E/LL	.	(16b\LL	.	(16gg#\LL	.
.	.	16e/JJ)	.	16cc#\JJ)	.	16aa\JJ)	.
(16EE/LL	.	8r	.	(16cc#\LL	.	(16aa\LL	.
16E/JJ)	.	.	.	32b\L	.	32gg#\L	.
.	.	.	.	32a\JJJ)	.	32ff#\JJJ)	.
8r	.	(16E/LL	.	(16a/LL	.	(16ff#\LL	.
.	.	16e/JJ)	.	32g#/L	.	32ee\L	.
.	.	.	.	32f#/JJJ)	.	32dd#\JJJ)	.
(16EE/LL	.	(16A/LL	.	(16f#/LL	.	(16dd#\LL	.
16E/JJ)	.	32F#/L	.	32d#/L	.	32ff#\L	.
.	.	32G#/JJJ)	.	32e/JJJ)	.	32ee\JJJ)	.
=49	=49	=49	=49	=49	=49	=49	=49
4r	.	(16.D/LL	.	(16.B/LL	.	[2eee\	.
.	.	32C#/JJk)	.	32A#/JJk)	.	.	.
.	.	(16.C#/LL	.	(16.A#/LL	.	.	.
.	.	32D/JJk)	.	32B/JJk)	.	.	.
*clefC4	*clefC4	*	*	*	*	*	*
(8e\	.	(16.D/LL	.	(16.B/LL	.	.	.
.	.	32A#/JJk)	.	32c#/JJk)	.	.	.
16.e\LL	.	(16.A#/LL	.	(16.c#/LL	.	.	.
32G#\JJk)	.	32B/JJk)	.	32dn/JJk)	.	.	.
=50	=50	=50	=50	=50	=50	=50	=50
(16.G#/LL	.	8B/	.	8d/	.	8eee\]	.
32A/JJk)	.	.	.	.	.	.	.
(16.B\LL	.	(16.G#/LL	.	8r	.	(16.bb\LL	.
32c#\JJk)	.	32An/JJk)	.	.	.	32aa\JJk)	.
(16.d\LL	.	8B/	.	8r	.	(16aa\LL	.
.	.	.	.	.	.	32gg#\L	.
32e\JJk)	.	.	.	.	.	32ff#\JJJ)	.
(16.f#\LL	p	8B/	p	(16.an/LL	p	(16ff#\LL	p
.	.	.	.	.	.	32dd#\L	.
32g#\JJk)	.	.	.	32b/JJk)	.	32ee\JJJ)	.
=51	=51	=51	=51	=51	=51	=51	=51
[2a\	.	8A/	.	(16.c#/LL	.	(16.ee\LL	.
.	.	.	.	32B#/JJk)	.	32dd#\JJk)	.
.	.	(16.A/LL	.	(16.B#/LL	.	(16.dd#\LL	.
.	.	32Gn/JJk)	.	32c#/JJk)	.	32ee\JJk)	.
.	.	(16.G/LL	.	(16.c#/LL	.	(16.ee\LL	.
.	.	32F#/JJk)	.	32d/JJk)	.	32ff#\JJk)	.
.	.	(16.F#/LL	.	(16.d/LL	.	(16.ff#\LL	.
.	.	32C#/JJk)	.	32e/JJk)	.	32ggn\JJk)	.
=52	=52	=52	=52	=52	=52	=52	=52
(16a\LL]	.	8C#/	.	8e/	.	(16.ggn\LL	.
32gn\L	.	.	.	.	.	.	.
32f#\JJJ)	.	.	.	.	.	32aa\JJk)	.
(16e\LL	.	8r	.	(16gn/LL	.	(16.bb\LL	.
32d\L	.	.	.	32f#/L	.	.	.
32c#\JJJ)	.	.	.	32e/JJJ)	.	32ccc#\JJk)	.
(16c#\LL	.	8r	.	(16e/LL	.	(16.dddn\LL	.
32B\L	.	.	.	32d/L	.	.	.
32A\JJJ)	.	.	.	32c#/JJJ)	.	32eee\JJk)	.
*clefF4	*clefF4	*	*	*	*	*	*
(16C#\LL 16A\	.	(16E/LL	.	32c#/LLL	.	(16.fff#\LL	.
.	.	.	.	(32cc#/	.	.	.
32BB\L	.	32D/L)	.	32dd/	.	.	.
32AA\JJJ)	.	32C#/JJJ	.	32ee/JJJ)	.	32gggn\JJk)	.
=53	=53	=53	=53	=53	=53	=53	=53
(32AA\LLL	p	(32C#/LLL	p	8ff#\	p	4.fff#\	p
32A\	.	32c#/	.	.	.	.	.
32B\	.	32d/	.	.	.	.	.
32c#\JJJ)	.	32e/JJJ)	.	.	.	.	.
[8d\	.	[8f#\	.	(16ff#\LL	.	.	.
.	.	.	.	32ee\L	.	.	.
.	.	.	.	32dd\JJJ)	.	.	.
*clefC4	*clefC4	*	*	*	*	*	*
(16.d\LL]	.	(16.f#\LL]	.	[4dd\	.	.	.
32e\JJk)	.	32g#\JJk)	.	.	.	.	.
[8e\	.	[8g#\	.	.	.	(16fff#\LL	.
.	.	.	.	.	.	32eee\L	.
.	.	.	.	.	.	32ddd\JJJ)	.
=54	=54	=54	=54	=54	=54	=54	=54
(16.e\LL]	.	(16.g#\LL]	.	8dd\]	.	4.ddd\	.
32f#\JJk)	.	32a\JJk)	.	.	.	.	.
8f#\	.	8a\	.	(16ff#\LL	.	.	.
.	.	.	.	32ee\L	.	.	.
.	.	.	.	32dd\JJJ)	.	.	.
*clefF4	*clefF4	*	*	*	*	*	*
(16.FF#/LL	.	(16.A/LL	.	8dd\	.	.	.
32GG#/JJk)	.	32B/JJk)	.	.	.	.	.
8GG#/	.	8B/	.	(16dd\LL	.	(16fff#\LL	.
.	.	.	.	32cc#\L	.	32eee\L	.
.	.	.	.	32b\JJJ)	.	32ddd\JJJ)	.
=55	=55	=55	=55	=55	=55	=55	=55
(16GG#/LL	p	(16B/LL	p	(16b\LL	p	(16ddd\LL	p
16AA/JJ)	.	16E/JJ)	.	16cc#\JJ)	.	32ccc#\L	.
.	.	.	.	.	.	32eee\JJJ)	.
(16AA#/LL	.	(16F#/LL	.	(16cc#/LL	.	(16eee\LL	.
16BB/JJ)	.	16d/JJ)	.	16f#/JJ)	.	32ff#\L	.
.	.	.	.	.	.	32ddd\JJJ)	.
(16GG#/LL	.	(16E/LL	.	(16b/LL	.	(16ddd\LL	.
16AAn/JJ)	.	16c#/JJ)	.	16e/JJ)	.	32ee\L	.
.	.	.	.	.	.	32ccc#\JJJ)	.
(16EE/LL	.	(16c#/LL	.	(16a/LL	.	(16ccc#\LL	.
16E/JJ)	.	16B/JJ)	.	16g#/JJ)	.	32ee\L	.
.	.	.	.	.	.	32eee\JJJ)	.
=56	=56	=56	=56	=56	=56	=56	=56
(16EE/LL	.	(16B/LL	.	(16g#/LL	.	(16eee\LL	.
16AA/JJ)	.	16c#/JJ)	.	16a/JJ)	.	32ddd\L	.
.	.	.	.	.	.	32ccc#\JJJ)	.
8r	.	8r	.	(16ee\LL	.	(16ccc#\LL	.
.	.	.	.	32dd\L	.	32bb\L	.
.	.	.	.	32cc#\JJJ)	.	32aa\JJJ)	.
.	.	.	.	.	.	aaq/LLL	.
.	.	.	.	.	.	bbq/JJJ	.
4r	.	(16ee\LL	.	(16cc#\LL	.	(16aa\LL	.
.	.	32dd\L	.	32b\L	.	32gg#\L	.
.	.	32cc#\JJJ)	.	32a\JJJ)	.	32aa\JJJ)	.
.	.	(16dd\LL	.	8g#/	.	[8bb\	.
.	.	32cc#\L	.	.	.	.	.
.	.	32dd\JJJ)	.	.	.	.	.
=57	=57	=57	=57	=57	=57	=57	=57
[4e\	.	[4g#\	.	(16.dd\LL	.	(16.bb\LL]	.
.	.	.	.	32cc#\JJk)	.	32aa#\JJk)	.
.	.	.	.	(16.cc#\LL	.	(16.aa#\LL	.
.	.	.	.	32dd\JJk)	.	32bb\JJk)	.
(8..e\L]	.	(16.g#\LL]	.	[4dd\	.	(16.bb\LL	.
.	.	32a#\JJk)	.	.	.	32ccc#\JJk)	.
.	.	(16.a#\LL	.	.	.	(16.ccc#\LL	.
32C#/Jkk)	.	32b\JJk)	.	.	.	32ddd\JJk)	.
=58	=58	=58	=58	=58	=58	=58	=58
(16.G#\LL	.	(16.B/LL	.	(16dd\LL]	.	8ddd\	.
.	.	.	.	32ddd\L	.	.	.
32A\JJk)	.	32c#/JJk)	.	32ccc#\JJJ)	.	.	.
(16.B\LL	.	(16.d\LL	.	(16ccc#\LL	.	8r	.
.	.	.	.	32bb\L	.	.	.
32c#\JJk)	.	32e\JJk)	.	32aa\JJJ)	.	.	.
(16.d\LL	.	(16.f#\LL	.	(16aa\LL	.	8r	.
.	.	.	.	32gg#\L	.	.	.
32e\JJk)	.	32g#\JJk)	.	32ff#\JJJ)	.	.	.
(16.f#\LL	p	(16.an\LL	p	(16ff#\LL	p	(16.ddd#\LL	p
.	.	.	.	32ee\L	.	.	.
32g#\JJk)	.	32b\JJk)	.	32dd\JJJ)	.	32eee\JJk)	.
=59	=59	=59	=59	=59	=59	=59	=59
(8a\	.	16r	.	(16.cc#\LL	.	(16.eee\LL	.
.	.	16A/	.	.	.	.	.
.	.	.	.	32b#\JJk)	.	32ddd#\JJk)	.
[8gn\)	.	[4.A\ [4.a\	.	(16.b#\LL	.	(16.ddd#\LL	.
.	.	.	.	32cc#\JJk)	.	32eee\JJk)	.
(16.g\LL]	.	.	.	(16.cc#\LL	.	(16.eee\LL	.
32f#\JJk)	.	.	.	32dd\JJk)	.	32fff#\JJk)	.
(16.f#\LL	.	.	.	(16.dd\LL	.	(16.fff#\LL	.
32c#\JJk)	.	.	.	32ee\JJk)	.	32gggn\JJk)	.
=60	=60	=60	=60	=60	=60	=60	=60
(16c#\LL	.	16A\LL] 16a\]	.	(16ee\LL	.	(32gggn\LLL	.
.	.	.	.	.	.	32a\	.
32E\L	.	(32Gn\L	.	32cc#\L	.	32aa\	.
32D\JJJ)	.	32F#\JJJ)	.	32dd\JJJ)	.	32bb\JJJ)	.
(16D/LL	.	(16F#/LL	.	(16ee\LL	.	(16ccc#\LL	.
32C#/L	.	32E/L	.	32ff#\L	.	32dddn\L	.
32BB/JJJ)	.	32D/JJJ)	.	32ggn\JJJ)	.	32eee\JJJ)	.
(16BB/LL	.	(16d\LL	.	(16gg\LL	.	(16eee\LL	.
32AA/L	.	32c#\L	.	32ff#\L	.	32fff#\L	.
32GGn/JJJ)	.	32B\JJJ)	.	32ee\JJJ)	.	32ggg\JJJ)	.
(16GG/LL	.	(16B/LL	.	(16ee\LL	.	(16ggg\LL	.
32FF#/L	.	32A/L	.	32dd\L	.	32ggg#\L	.
32EE/JJJ)	.	32G/JJJ)	.	32cc#\JJJ)	.	32aaa\JJJ)	.
=61	=61	=61	=61	=61	=61	=61	=61
16.DD/LL	p	(16.F#/LL	p	(16ff#\LL	p	(16.aaa\LL	p
.	.	.	.	32ee\L	.	.	.
32F#/JJk	.	32A/JJk)	.	32dd\JJJ)	.	32aa\JJk)	.
(16.F#\LL	.	[8d\	.	(16dd\LL	.	(16.aa\LL	.
.	.	.	.	32ee\L	.	.	.
32G#\JJk)	.	.	.	32dd\JJJ)	.	32bb\JJk)	.
4GG#/	.	(16d\LL]	.	8dd\	.	[4bb\	.
.	.	32e\L	.	.	.	.	.
.	.	32d\JJJ)	.	.	.	.	.
.	.	(16f#\LL	.	8r	.	.	.
.	.	32e\L	.	.	.	.	.
.	.	32d\JJJ)	.	.	.	.	.
=62	=62	=62	=62	=62	=62	=62	=62
(16.G#\LL	.	8c#\	.	16r	.	(16.bb\LL]	.
.	.	.	.	(32dd\LLL	.	.	.
32A\JJk)	.	.	.	32cc#\JJJ	.	32ccc#\JJk)	.
8AA/	.	8r	.	16ee\LL	.	[8ccc#\	.
.	.	.	.	32dd\L	.	.	.
.	.	.	.	32cc#\JJJ)	.	.	.
(16.A\LL	.	16r	.	8dd\	.	(16.ccc#\LL]	.
.	.	(32a\LLL	.	.	.	.	.
32B\JJk)	.	32g#\JJJ	.	.	.	32ddd\JJk)	.
8BB/	.	16b\LL	.	8r	.	[8ddd\	.
.	.	32a\L	.	.	.	.	.
.	.	32g#\JJJ)	.	.	.	.	.
=63	=63	=63	=63	=63	=63	=63	=63
(32B\LLL	p	(16a\LL	p	16r	.	(32ddd\LLL]	p
32B#\)	.	.	.	.	.	32ddd#\)	.
(32B#\	.	32f#\L	.	(32a\LLL	p	(32ddd#\	.
32c#\JJJ)	.	32e\JJJ)	.	32ee\JJJ)	.	32eee\JJJ)	.
(32c#\LLL	.	16a#\LL	.	(32ee\LLL	.	(32eee\LLL	.
32f#\)	.	.	.	32cc#\)	.	32ff#\)	.
(32e\	.	(32a#\L	.	(32cc#\	.	(32ccc#\	.
32d\JJJ)	.	32f#\JJJ)	.	32b\JJJ)	.	32dddn\JJJ)	.
(32Bn\LLL	.	16g#\LL	.	(32dd\LLL	.	(32ddd\LLL	.
32e\)	.	.	.	32b\)	.	32ee\)	.
(32d\	.	(32g#\L	.	(32b\	.	32bb\	.
32c#\JJJ)	.	32e\JJJ)	.	32a\JJJ)	.	32ccc#\JJJ	.
(32E\LLL	.	(32e/LLL	.	(32a/LLL	.	32ccc#\LLL	.
32G#\)	.	32B/)	.	32b/)	.	&(32ee\&)	.
(32F#\	.	(32B/	.	(32a/	.	32ddd#\	.
32E\JJJ)	.	32G#/JJJ)	.	32b/JJJ)	.	&(32eee\JJJ&)	.
=64	=64	=64	=64	=64	=64	=64	=64
(32AA/LLL	.	(32e\LLL	.	(32cc#/LLL	.	(16eee\LL	.
32C#/)	.	32c#\)	.	32a/)	.	.	.
(32BB/	.	(32d\	.	(32g#/	.	32dddn\L	.
32AA/JJJ)	.	32An\JJJ)	.	32a/JJJ)	.	32ccc#\JJJ)	.
8r	.	8r	.	8r	.	(16ccc#\LL	.
.	.	.	.	.	.	32bb\L	.
.	.	.	.	.	.	32aa\JJJ)	.
4r	.	4r	.	4r	.	(16aa\LL	.
.	.	.	.	.	.	32ff#\L	.
.	.	.	.	.	.	32dd#\JJJ)	.
.	.	.	.	.	.	(16ddn\LL	.
.	.	.	.	.	.	32b\L	.
.	.	.	.	.	.	32ee\JJJ)	.
=65	=65	=65	=65	=65	=65	=65	=65
*met(C)	*met(C)	*met(C)	*met(C)	*met(C)	*met(C)	*met(C)	*met(C)
*M4/4	*M4/4	*M4/4	*M4/4	*M4/4	*M4/4	*M4/4	*M4/4
*MM88	*MM88	*MM88	*MM88	*MM88	*MM88	*MM88	*MM88
1r	.	8A/L	pp	8c#/L 8e/	pp	4a/	pp
.	.	8r	.	8r	.	.	.
.	.	8A/J	.	8c#/J 8e/	.	4r	.
.	.	8r	.	8r	.	.	.
.	.	8A/L	.	8c#/L 8e/	.	2r	.
.	.	8r	.	8r	.	.	.
.	.	8A/J	.	8c#/J 8e/	.	.	.
.	.	8r	.	8r	.	.	.
=66	=66	=66	=66	=66	=66	=66	=66
1r	.	8A/L	.	8c#/L 8e/	.	8r	.
.	.	8r	.	8r	.	(8ee\L	.
.	.	8A/J	.	8c#/J 8e/	.	8aa\	.
.	.	8r	.	8r	.	8gg#\J	.
.	.	8A/L	.	8c#/L 8e/	.	8aa\L	.
.	.	8r	.	8r	.	8ee\	.
.	.	8A/J	.	8c#/J 8e/	.	8ccc#\	.
.	.	8r	.	8r	.	8aa\J)	.
=67	=67	=67	=67	=67	=67	=67	=67
1r	.	8G#/L	.	8B/L 8e/	.	4ddd\	.
.	.	8r	.	8r	.	.	.
.	.	8G#/J	.	8B/J 8e/	.	4r	.
.	.	8r	.	8r	.	.	.
.	.	8G#/L	.	8B/L 8e/	.	2r	.
.	.	8r	.	8r	.	.	.
.	.	8G#/J	.	8B/J 8e/	.	.	.
.	.	8r	.	8r	.	.	.
=68	=68	=68	=68	=68	=68	=68	=68
8r	.	8G#/L	.	8B/L 8e/	.	1r	.
(8EE/L	pp	8r	.	8r	.	.	.
8BB/	.	8G#/J	.	8B/J 8e/	.	.	.
8AA#/J	.	8r	.	8r	.	.	.
8BB/L	.	8G#/L	.	8B/L 8e/	.	.	.
8EE/	.	8r	.	8r	.	.	.
8D/	.	8G#/J	.	8B/J 8e/	.	.	.
8BB/J)	.	8r	.	8r	.	.	.
=69	=69	=69	=69	=69	=69	=69	=69
4E\	.	8C#/L	.	8A/L 8e/	.	1r	.
.	.	8r	.	8r	.	.	.
4r	.	8C#/J	.	8A/J 8e/	.	.	.
.	.	8r	.	8r	.	.	.
2r	.	8C#/L	.	8A/L 8e/	.	.	.
.	.	8r	.	8r	.	.	.
.	.	8C#/J	.	8A/J 8e/	.	.	.
.	.	8r	.	8r	.	.	.
=70	=70	=70	=70	=70	=70	=70	=70
4r	.	8C#/L	.	8A/L 8e/	.	8r	.
.	.	8r	.	8r	.	(8aa\L	.
8a\	.	8C#/J	.	8A/J 8e/	.	8aaa\	.
8r	.	8r	.	8r	.	8ggg#\J	.
8a\L	.	8C#/L	.	8A/L 8e/	.	8aaa\L	.
8r	.	8r	.	8r	.	8gggn\	.
8CC#/J	.	8C#/J	.	8A/J 8a/	.	8eee\	.
8r	.	8r	.	8r	.	8fffn\J	.
=71	=71	=71	=71	=71	=71	=71	=71
4r	.	8D/L	.	8d/L 8f#/	.	8fff#'\L)	.
.	.	8r	.	8r	.	(8ff#\	.
8f#\	.	8A#/J	.	8c#/J	.	8fff#\	.
8r	.	8r	.	8r	.	8fffn\J	.
8f#\L	.	8A#/L	.	8c#/L	.	8fff#\L	.
8r	.	8r	.	8r	.	8eee\	.
8FF#\J	.	8A#/J	.	8c#/J	.	8ccc#\	.
8r	.	8r	.	8r	.	8eee\J	.
=72	=72	=72	=72	=72	=72	=72	=72
8FF#/L	.	8An/L	.	8B/L	.	8ddd#'\L)	.
8r	.	8r	.	8r	.	(8bb\	.
8EE/J	.	8G#/J	.	8e/J 8b/	.	8eee\	.
8r	.	8r	.	8r	.	8dddn\J	.
8AA/L	.	8A/L	.	8e/ 8cc#/	.	8ccc#'\L)	.
8r	.	8r	.	8r	.	(8bb\	.
8FF#/J	.	8F#/J 8A/	.	8dd#\	.	8ccc#\	.
8r	.	8r	.	8r	.	8aa\J)	.
=73	=73	=73	=73	=73	=73	=73	=73
8EE\L	.	8E/L 8B/	.	8ee\L	.	(8aa\L	.
8r	.	8r	.	8r	.	8gg#\	.
8e\J	.	8F#/J 8B/	.	8a\J	.	8aa\	.
8r	.	8r	.	8r	.	8ff#\J)	.
8e\L	.	8G#/L 8B/	.	8b\L	.	(8ff#\L	.
8r	.	8r	.	8r	.	8ee\	.
8e\J	.	8E/J 8B/	.	8ddn\J	.	8ff#\	.
8r	.	8r	.	8r	.	8gg#\J)	.
=74	=74	=74	=74	=74	=74	=74	=74
8e\	.	8A/L	.	4cc#\	.	8aa\L	.
8r	.	8r	.	.	.	8r	.
4r	.	8c#/J 8e/	pp	4r	.	8cc#\J 8ee\	pp
.	.	8r	.	.	.	8r	.
2r	.	8c#\L 8e\	.	8r	.	8cc#\L 8ee\	.
.	.	8r	.	(8e/L	.	8r	.
.	.	8c#\J 8e\	.	8a/	.	8cc#\J 8ee\	.
.	.	8r	.	8g#/J)	.	8r	.
=75	=75	=75	=75	=75	=75	=75	=75
8r	.	8c#\L 8e\	.	4a/	.	8cc#\L 8ee\	.
(8EE/L	.	8r	.	.	.	8r	.
8AA/	.	8c#\J 8e\	.	4r	.	8cc#\J 8ee\	.
8GG#/J	.	8r	.	.	.	8r	.
8AA/L	.	8c#\L 8e\	.	2r	.	8cc#\L 8ee\	.
8EE/	.	(8A\	.	.	.	8r	.
8C#/	.	8e\	.	.	.	8cc#\J 8ee\	.
8AA/J)	.	8c#\J)	.	.	.	8r	.
=76	=76	=76	=76	=76	=76	=76	=76
4D\	.	8E\L 8B\	.	2r	.	8g#\L 8ee\	.
.	.	8r	.	.	.	8r	.
4r	.	8g#\J 8b\	.	.	.	8dd\J 8ee\	.
.	.	8r	.	.	.	8r	.
2r	.	8g#\L 8b\	.	8r	.	8dd\L 8ee\	.
.	.	8r	.	(8e/L	.	8r	.
.	.	8G#\J	.	8b/	.	8dd\J 8ee\	.
.	.	8r	.	8a#/J)	.	8r	.
=77	=77	=77	=77	=77	=77	=77	=77
8r	.	8G#/L	.	8b/L	.	8dd\L 8ee\	.
(8EE/L	.	8r	.	8r	.	8r	.
8BB/	.	8G#/J	.	8e/J 8dd/	.	8dd\J 8ee\	.
8AA#/J	.	8r	.	8r	.	8r	.
8BB/L	.	8G#/L	.	8e/L 8dd/	.	8dd\L 8ee\	.
8EE/	.	(8E/	.	8r	.	8r	.
8D/	.	8B/	.	8e/J	.	8g#\J 8ee\	.
8BB/J)	.	8G#/J)	.	8r	.	8r	.
=78	=78	=78	=78	=78	=78	=78	=78
8E\L	.	8c#\L	.	8e/L	.	8a\L 8ee\	.
(8An\	p	8r	.	8r	.	8r	.
8a\	.	8cc#\J	.	8ee/J	.	8ccc#\J	.
8g#\J	.	8r	.	8r	.	8r	.
8a\L	.	8cc#\L	.	8ee\L	.	8ccc#\L	.
8gn\	.	8r	.	(8a\	.	8r	.
8e\	.	8a\J	.	8cc#\	.	8ccc#\J	.
8fn\J	.	8r	.	8a\J)	.	8r	.
=79	=79	=79	=79	=79	=79	=79	=79
8f#'\L)	.	8a\L	.	8dd\L	.	8ddd\L	.
(8F#\	.	8r	.	8r	.	8r	.
8f#\	.	8a#\J	.	8cc#\J	.	8aa#\J	.
8fn\J	.	8r	.	8r	.	8r	.
8f#\L	.	8r	.	8cc#\L	.	8aa#\L	.
8e\	.	(8f#\L	.	8r	.	8r	.
8c#\	.	8a#\	.	8cc#\J	.	8aa#\J	.
8e\J	.	8f#\J)	.	8r	.	8r	.
=80	=80	=80	=80	=80	=80	=80	=80
8d#'\L)	.	8f#\L	.	8b/L	.	8bb\L	.
(8B\	.	8r	.	(8g#/	.	8r	.
8e\	.	8g#\J	.	8b/	.	8bb\J	.
8dn\J	.	8r	.	8g#/J	.	8r	.
8c#\L)	.	8an\L	.	8ee\L)	.	8ccc#\L	.
(8B\	.	8r	.	(8dd\	.	8r	.
8c#\	.	8a\J	.	8ee\	.	8ccc#\J	.
8A\J)	.	8r	.	8cc#\J)	.	8r	.
=81	=81	=81	=81	=81	=81	=81	=81
(8A\L	.	8a\L	.	(8cc#\L	.	8ccc#\L	.
8G#\	.	8r	.	8b\	.	8r	.
8A\	.	8a\J	.	8cc#\	.	8eee\J	.
8F#\J)	.	8r	.	8a\J)	.	8r	.
(8F#/L	.	8e\L 8b\	.	(8a\L	.	8eee\L	.
8E/	.	8r	.	8g#\	.	8r	.
8BB/	.	8G#\J 8e\	.	8b\	.	8eee\J	.
8GG#/J)	.	8r	.	8ee\J)	.	8r	.
=82	=82	=82	=82	=82	=82	=82	=82
(8FF#/L	.	8G#/L 8B/	.	(8gg#\L	.	8eee\L	.
8EE/	.	8r	.	8bb\	.	8r	.
8GG#/	.	8G#/J 8B/	.	8gg#\	.	8eee\J	.
8BB/J	.	8r	.	[8ee\J	.	8r	.
8D\L	.	8G#/L 8B/	.	8ee/L]	.	8eee\L	.
8E\	.	8r	.	8b/	.	8r	.
8G#\	.	8G#/J 8B/	.	8g#/	.	8eee\J	.
8B\J	.	8r	.	8e/J	.	8r	.
=83	=83	=83	=83	=83	=83	=83	=83
8c#\L	.	8G#/L 8e/	.	8B/L	.	8eee\L	.
8d\	.	8r	.	8G#/J)	.	(8e\	.
8B\	.	8E/J	.	(12c#/L	.	8g#\	.
.	.	.	.	12d/	.	.	.
8G#\J	.	8r	.	.	.	8b\J	.
.	.	.	.	12B/J)	.	.	.
8E/L	.	8G#/L 8B/	.	4r	.	8ee\L	.
8D/	.	8r	.	.	.	8gg#\	.
8BB/	.	8G#/J 8B/	.	(12cc#\L	.	8bb\	.
.	.	.	.	12dd\	.	.	.
8GG#/J)	.	8r	.	.	.	[8eee\J)	.
.	.	.	.	12b\J)	.	.	.
=84	=84	=84	=84	=84	=84	=84	=84
(8GGn/L	.	8C#/L 8A/	.	(8ee/L	.	8eee\L]	.
8CC#/	.	8r	.	8e/	.	(8gggn\	.
8EE/	.	8C#/J 8A/	.	8gn/	.	8eee\	.
8GG/J	.	8r	.	8a/J	.	8ccc#\J	.
8AA\L	.	8C#/L 8A/	.	8cc#\L	.	8aa\L	.
8C#\	.	8r	.	8ee\	.	8ggn\	.
8E\	.	8C#/J 8A/	.	8ggn\	.	8ee\	.
8Gn\J	.	8r	.	8aa\J	.	8cc#\J	.
=85	=85	=85	=85	=85	=85	=85	=85
8A\L	.	8E/L 8A/	.	8ccc#\L	.	8gn\L	.
8Gn\	.	8r	.	8eee\J)	.	8cc#\	.
8E\	.	8Gn/J 8A/	.	(12f#/L	.	8ee\	.
.	.	.	.	12gn/	.	.	.
8C#\J	.	8r	.	.	.	8ggn\J	.
.	.	.	.	12e/J)	.	.	.
8AA/L	.	8E/L 8A/	.	4r	.	8ccc#\L	.
8GGn/	.	8r	.	.	.	8eee\)	.
8EE/	.	8E/J 8A/	.	(12ff#\L	.	8gggn\	.
.	.	.	.	12ggn\	.	.	.
8CC#/J)	.	8r	.	.	.	8ggg\J	.
.	.	.	.	12ee\J)	.	.	.
=86	=86	=86	=86	=86	=86	=86	=86
8DD/L	.	8D/L 8d/	.	8ff#/L	.	8fff#\L	.
(8AA/	f	(8A/	f	(8A/	f	(8a\	f
8D/	.	8d/	.	8d/	.	8dd\	.
8C#/J	.	8c#/J	.	8c#/J	.	8cc#\J	.
8D\L	.	8d\L	.	8d/L	.	8dd\L	.
8F#\	.	8f#\	.	8f#/	.	8ff#\	.
8G#\	.	8g#\	.	8g#/	.	8gg#\	.
8E\J)	.	8e\J)	.	8e/J)	.	8ee\J)	.
=87	=87	=87	=87	=87	=87	=87	=87
(8AA/L	.	(8A/L	.	(8a/L	.	(8aa\L	.
8AA#/	.	8A#/	.	8a#/	.	8aa#\	.
8BB/	.	8B/	.	8b/	.	8bb\	.
8GG#/J)	.	8G#/J)	.	8g#/J)	.	8gg#\J)	.
(8BB#/L	.	(8B#/L	.	(8b#\L	.	(8bb#\L	.
8C#/	.	8c#/	.	8cc#\	.	8ccc#\	.
8D/	.	8d/	.	8dd\	.	8ddd\	.
8BBn/J)	.	8Bn/J)	.	8bn\J)	.	8bbn\J)	.
=88	=88	=88	=88	=88	=88	=88	=88
(8D#\L	.	(8d#\L	.	(8dd#\L	.	(8ddd#\L	.
8E\	.	8e\	.	8ee\	.	8eee\	.
8F#\	.	8f#\	.	8ff#\	.	8fff#\	.
8Dn\J)	.	8dn\J)	.	8ddn\J)	.	8dddn\J)	.
(8C#/L	.	(8c#/L	.	(8cc#/L	.	(8ccc#\L	.
8BB/	.	8B/	.	8b/	.	8bb\	.
8E/	.	8e/	.	8ee/	.	8eee\	.
8EE/J)	.	8E/J)	.	8e/J)	.	8ee\J)	.
=89	=89	=89	=89	=89	=89	=89	=89
8AA/	.	8A/	.	8a/L	.	(8aa\L	.
8r	.	8r	.	8r	.	8a\J)	.
4r	.	4r	.	(8ee/	.	4r	.
.	.	.	.	8e/J)	.	.	.
4r	.	(8e/L	.	2r	.	2r	.
.	.	8E/J)	.	.	.	.	.
(8E/L	.	4r	.	.	.	.	.
8EE/J)	.	.	.	.	.	.	.
=90	=90	=90	=90	=90	=90	=90	=90
(8FF#/L	p	4r	.	8G#/L	p	8r	.
8EE/	.	.	.	8r	.	(8ddd\L	.
8GG#/	.	(12c#\L	p	8e/J 8b/	.	8bb\	p
.	.	12d\	.	.	.	.	.
8BB/J	.	.	.	8r	.	8gg#\J	.
.	.	12B\J)	.	.	.	.	.
8D\L	.	4r	.	8g#/L 8b/	.	8ee\L	.
8E\	.	.	.	8r	.	8dd\	.
8G#\	.	(12c#\L	.	8e/J	.	8b\	.
.	.	12d\	.	.	.	.	.
8B\J	.	.	.	8r	.	8g#\J	.
.	.	12B\J)	.	.	.	.	.
=91	=91	=91	=91	=91	=91	=91	=91
8c#\L	.	8E/L 8B/	.	4r	.	8f#/L	.
8d\	.	8r	.	.	.	8e/	.
8B\	.	8e/J	.	(12cc#\L	.	8g#/	.
.	.	.	.	12dd\	.	.	.
8G#\J	.	8r	.	.	.	8b/J	.
.	.	.	.	12b\J)	.	.	.
8E/L	.	8G#/L 8B/	.	4r	.	8ee\L	.
8D/	.	8r	.	.	.	8gg#\	.
8BB/	.	8E/J 8B/	.	(12cc#\L	.	8bb\	.
.	.	.	.	12dd\	.	.	.
8GG#/J)	.	8r	.	.	.	[8eee\J)	.
.	.	.	.	12b\J)	.	.	.
=92	=92	=92	=92	=92	=92	=92	=92
(8GGn/L	.	4E/ 4c#/	.	8a\L 8ee\	.	8eee\L]	.
8CC#/	.	.	.	8r	.	(8gggn\	.
8EE/	.	12F#/L	.	8gn\J 8a\	.	8eee\	.
.	.	12Gn/	.	.	.	.	.
8GG/J	.	.	.	8r	.	8ccc#\J	.
.	.	12E/J	.	.	.	.	.
8AA\L	.	4r	.	8e/L 8a/	.	8aa\L	.
8C#\	.	.	.	8r	.	8ggn\	.
8E\	.	12F#/L	.	8g/J 8a/	.	8ee\	.
.	.	12G/	.	.	.	.	.
8Gn\J	.	.	.	8r	.	8cc#\J	.
.	.	12E/J	.	.	.	.	.
=93	=93	=93	=93	=93	=93	=93	=93
8A\L	.	8c#\L 8e\	.	8gn/ 8a/	.	8gn\L	.
8Gn\	.	8r	.	8r	.	8cc#\	.
8E\	.	8A\J 8e\	.	(12ff#\L	.	8ee\	.
.	.	.	.	12ggn\	.	.	.
8C#\J	.	8r	.	.	.	8ggn\J	.
.	.	.	.	12ee\J)	.	.	.
8AA/L	.	8c#\L 8e\	.	4r	.	8ccc#\L	.
8GGn/	.	8r	.	.	.	8eee\)	.
8EE/	.	8A\J 8e\	.	(12ff#\L	.	8gggn\	.
.	.	.	.	12gg\	.	.	.
8CC#/J)	.	8r	.	.	.	8ggg\J	.
.	.	.	.	12ee\J)	.	.	.
=94	=94	=94	=94	=94	=94	=94	=94
8DD/L	f	8D/L 8d/	f	8a/L 8ff#/	f	8fff#\L	f
(8AA/	.	(8A/	.	(8A/	.	(8a\	.
8D/	.	8d/	.	8d/	.	8dd\	.
8C#/J	.	8c#/J	.	8c#/J	.	8cc#\J	.
8D\L	.	8d\L	.	8d/L	.	8dd\L	.
8F#\	.	8f#\	.	8f#/	.	8ff#\	.
8G#\	.	8g#\	.	8g#/	.	8gg#\	.
8E\J)	.	8e\J)	.	8e/J)	.	8ee\J)	.
=95	=95	=95	=95	=95	=95	=95	=95
(8AA/L	.	(8A/L	.	(8a/L	.	(8aa\L	.
8AA#/	.	8A#/	.	8a#/	.	8aa#\	.
8BB/	.	8B/	.	8b/	.	8bb\	.
8GG#/J)	.	8G#/J)	.	8g#/J)	.	8gg#\J)	.
(8BB#/L	.	(8B#/L	.	(8b#\L	.	(8bb#\L	.
8C#/	.	8c#/	.	8cc#\	.	8ccc#\	.
8D/	.	8d/	.	8dd\	.	8ddd\	.
8BBn/J)	.	8Bn/J)	.	8bn\J)	.	8bbn\J)	.
=96	=96	=96	=96	=96	=96	=96	=96
(8D#\L	.	(8d#\L	.	(8dd#\L	.	(8ddd#\L	.
8E\	.	8e\	.	8ee\	.	8eee\	.
8F#\	.	8f#\	.	8ff#\	.	8fff#\	.
8Dn\J)	.	8dn\J)	.	8ddn\J)	.	8dddn\J)	.
(8C#/L	.	(8c#/L	.	(8cc#/L	.	(8ccc#\L	.
8BB/	.	8B/	.	8b/	.	8bb\	.
8E/	.	8e/	.	8ee/	.	8eee\	.
8EE/J)	.	8E/J)	.	8e/J)	.	8ee\J)	.
=97	=97	=97	=97	=97	=97	=97	=97
8AA/	.	8A/	.	8a/L	.	(8aa\L	.
8r	.	8r	.	8r	.	8a\J)	.
4r	.	4r	.	(8ee/	.	4r	.
.	.	.	.	8e/J)	.	.	.
4r	.	(8c#/L	.	2r	.	2r	.
.	.	8C#/J)	.	.	.	.	.
(8A\L	.	4r	.	.	.	.	.
8AA\J)	.	.	.	.	.	.	.
=98	=98	=98	=98	=98	=98	=98	=98
*MM80	*MM80	*MM80	*MM80	*MM80	*MM80	*MM80	*MM80
4r	.	1r	.	1r	.	1r	.
*clefC4	*clefC4	*	*	*	*	*	*
(8.A\L	.	.	.	.	.	.	.
16B\Jk	p	.	.	.	.	.	.
8.c#\L	.	.	.	.	.	.	.
16B\Jk	.	.	.	.	.	.	.
4A\	.	.	.	.	.	.	.
=99	=99	=99	=99	=99	=99	=99	=99
4G#/	.	4r	.	1r	.	1r	.
2F#/)	.	(8.B/L	.	.	.	.	.
.	.	16c#/Jk	.	.	.	.	.
.	.	8.d\L	.	.	.	.	.
.	.	16c#\Jk	.	.	.	.	.
4r	.	4B/	.	.	.	.	.
=100	=100	=100	=100	=100	=100	=100	=100
4r	.	4A/	.	1r	.	1r	.
(8.d\L	.	2G#/)	.	.	.	.	.
16e\Jk)	.	.	.	.	.	.	.
(8.f#\L	.	.	.	.	.	.	.
16e\Jk)	.	.	.	.	.	.	.
(8.e\L	.	4r	.	.	.	.	.
16d\Jk)	.	.	.	.	.	.	.
=101	=101	=101	=101	=101	=101	=101	=101
(8.d\L	.	4r	.	1r	.	1r	.
16c#\Jk)	.	.	.	.	.	.	.
4r	.	(8.e\L	.	.	.	.	.
.	.	16f#\Jk)	.	.	.	.	.
4r	.	(8.gn\L	.	.	.	.	.
.	.	16f#\Jk)	.	.	.	.	.
(8.a\L	.	(8.f#\L	.	.	.	.	.
16gn\Jk)	.	16e\Jk)	.	.	.	.	.
=102	=102	=102	=102	=102	=102	=102	=102
(8.gn\L	.	(8.e\L	.	1r	.	1r	.
16f#\Jk)	.	16d\Jk)	.	.	.	.	.
(8.e\L	.	4r	.	.	.	.	.
16a\Jk)	.	.	.	.	.	.	.
(8.a\L	.	4r	.	.	.	.	.
16g\Jk)	.	.	.	.	.	.	.
4e\	p	(8.b\L	.	.	.	.	.
.	.	16a\Jk)	.	.	.	.	.
=103	=103	=103	=103	=103	=103	=103	=103
2r	.	(8.a\L	.	1r	.	1r	.
.	.	16gn\Jk)	.	.	.	.	.
.	.	(8.f#\L	.	.	.	.	.
.	.	16b\Jk)	.	.	.	.	.
4r	.	(8.b\L	.	.	.	.	.
.	.	16a#\Jk)	.	.	.	.	.
(8.a\L	.	4f#\	.	.	.	.	.
16f#\Jk)	.	.	.	.	.	.	.
=104	=104	=104	=104	=104	=104	=104	=104
(8.e\L	.	4r	p	1r	.	1r	.
16d#\Jk)	.	.	.	.	.	.	.
[4dn\	.	(8.b\L	.	.	.	.	.
.	.	16g#\Jk)	.	.	.	.	.
(8d\L]	.	(8.f#\L	.	.	.	.	.
8c#\)	.	.	.	.	.	.	.
.	.	16e\Jk)	.	.	.	.	.
(8c#\	.	(8.e\L	.	.	.	.	.
8B\J)	.	.	.	.	.	.	.
.	.	16d\Jk)	.	.	.	.	.
=105	=105	=105	=105	=105	=105	=105	=105
(8B/L	p	(8d\	p	1r	.	1r	.
8A/)	.	4c#\)	.	.	.	.	.
8F#'/	.	.	.	.	.	.	.
8B'/J	.	8d#\	.	.	.	.	.
.	.	c#q/LL	.	.	.	.	.
.	.	d#q/JJ	.	.	.	.	.
8E/	.	8e'\L	.	.	.	.	.
4f#\	.	8dn'\J	.	.	.	.	.
.	.	8B'\L	.	.	.	.	.
8g#\	.	8e'\J	.	.	.	.	.
=106	=106	=106	=106	=106	=106	=106	=106
4a\	.	1f#	.	1r	.	4r	.
4r	.	.	.	.	.	(8.a/L	.
.	.	.	.	.	.	16b/Jk	.
2r	.	.	.	.	.	8.cc#\L	.
.	.	.	.	.	.	16b\Jk	.
.	.	.	.	.	.	4a/	.
=107	=107	=107	=107	=107	=107	=107	=107
1d	.	1r	.	4r	.	4g#/	.
.	.	.	.	(8.b\L	.	2f#/)	.
.	.	.	.	16cc#\Jk	.	.	.
.	.	.	.	8.dd\L	.	.	.
.	.	.	.	16cc#\Jk	.	.	.
.	.	.	.	4b\	.	4r	.
=108	=108	=108	=108	=108	=108	=108	=108
1r	.	1e	.	4a/	.	4r	.
.	.	.	.	2g#/)	.	(8.dd\L	.
.	.	.	.	.	.	16ee\Jk)	.
.	.	.	.	.	.	(8.ff#\L	.
.	.	.	.	.	.	16ee\Jk)	.
.	.	.	.	4r	.	(8.ee\L	.
.	.	.	.	.	.	16dd\Jk)	.
=109	=109	=109	=109	=109	=109	=109	=109
1A	.	1r	.	4r	.	(8.dd\L	.
.	.	.	.	.	.	16cc#\Jk)	.
.	.	.	.	(8.ee\L	.	4r	.
.	.	.	.	16ff#\Jk)	.	.	.
.	.	.	.	(8.ggn\L	.	4r	.
.	.	.	.	16ff#\Jk)	.	.	.
.	.	.	.	(8.ff#\L	.	(8.aa\L	.
.	.	.	.	16ee\Jk)	.	16ggn\Jk)	.
=110	=110	=110	=110	=110	=110	=110	=110
*clefF4	*clefF4	*	*	*	*	*	*
1r	.	2a\	.	(8.ee\L	.	(8.ggn\L	.
.	.	.	.	16dd\Jk)	.	16ff#\Jk)	.
.	.	.	.	4r	.	(8.ee\L	.
.	.	.	.	.	.	16aa\Jk)	.
.	.	2c#\	.	4r	.	(8.aa\L	.
.	.	.	.	.	.	16gg\Jk)	.
.	.	.	.	(8.bb\L	.	4ee\	.
.	.	.	.	16aa\Jk)	.	.	.
=111	=111	=111	=111	=111	=111	=111	=111
2d\	.	1r	.	(8.aa\L	.	2r	.
.	.	.	.	16ggn\Jk)	.	.	.
.	.	.	.	(8.ff#\L	.	.	.
.	.	.	.	16bb\Jk)	.	.	.
2F#\	.	.	.	(8.bb\L	.	4r	.
.	.	.	.	16aa#\Jk)	.	.	.
.	.	.	.	4ff#\	.	(8.aa\L	.
.	.	.	.	.	.	16ff#\Jk)	.
=112	=112	=112	=112	=112	=112	=112	=112
2r	.	2b\	.	4r	.	(8.ee\L	.
.	.	.	.	.	.	16dd#\Jk)	.
.	.	.	.	(8.bb\L	.	[4ddn\	.
.	.	.	.	16gg#\Jk)	.	.	.
2e\	.	(8g#\L	.	(8.ff#\L	.	(8dd\L]	.
.	.	8a\	.	.	.	8cc#\)	.
.	.	.	.	16ee\Jk)	.	.	.
.	.	8f#\	.	(8.ee\L	.	(8cc#\	.
.	.	8g#\J)	.	.	.	[8b\J)	.
.	.	.	.	16dd\Jk)	.	.	.
=113	=113	=113	=113	=113	=113	=113	=113
[2E\	.	(8G#/	.	(8dd\	.	(8b/L]	.
.	.	4A/)	.	4cc#\)	.	8a/)	.
.	.	.	.	.	.	8f#'/	.
.	.	8A'/	.	8dd#\	.	8b'/J	.
.	.	.	.	cc#q/LL	.	.	.
.	.	.	.	dd#q/JJ	.	.	.
8E\]	.	(8G#/L	.	4ee\	.	4e/	.
4CC#/	.	8A/)	.	.	.	.	.
.	.	8F#'/	.	4r	.	4r	.
8DD#/	.	8B'/J	.	.	.	.	.
=114	=114	=114	=114	=114	=114	=114	=114
CC#q/LL	.	.	.	.	.	.	.
DD#q/JJ	.	.	.	.	.	.	.
4EE'/	.	4E/	.	1r	.	1r	.
4FF#/	.	4r	.	.	.	.	.
EEq/LL	.	.	.	.	.	.	.
FF#q/JJ	.	.	.	.	.	.	.
4GG#'/	.	2r	.	.	.	.	.
[4AA/	.	.	.	.	.	.	.
=115	=115	=115	=115	=115	=115	=115	=115
(8AA/L]	.	4F#'/	.	1r	.	1r	.
8GG#/)	.	.	.	.	.	.	.
8FF#'/	.	4G#/	.	.	.	.	.
8EE'/J	.	.	.	.	.	.	.
.	.	F#q/LL	.	.	.	.	.
.	.	G#q/JJ	.	.	.	.	.
8DD#'/L	.	4A'/	.	.	.	.	.
8DDn'/J	.	.	.	.	.	.	.
4r	.	[4B/	.	.	.	.	.
=116	=116	=116	=116	=116	=116	=116	=116
4AA'/	.	(8B/L]	.	1r	.	1r	.
.	.	8A/)	.	.	.	.	.
4BB/	.	8G#'/	.	.	.	.	.
.	.	8F#'/J	.	.	.	.	.
AAq/LL	.	.	.	.	.	.	.
BBq/JJ	.	.	.	.	.	.	.
4C#'/	.	8Fn'/L	.	.	.	.	.
.	.	8E'/J	.	.	.	.	.
[4D\	.	4r	.	.	.	.	.
=117	=117	=117	=117	=117	=117	=117	=117
(8D/L]	.	4B/	.	1r	.	1r	.
8C#/)	.	.	.	.	.	.	.
8BB'/	.	4c#\	.	.	.	.	.
8AA'/J	.	.	.	.	.	.	.
.	.	Bq/LL	.	.	.	.	.
.	.	c#q/JJ	.	.	.	.	.
8GG#'/L	.	4d'\	.	.	.	.	.
8GGn'/J	.	.	.	.	.	.	.
4r	.	[4e\	.	.	.	.	.
=118	=118	=118	=118	=118	=118	=118	=118
4FF#/	.	(8e\L]	.	1r	.	1r	.
.	.	8d\)	.	.	.	.	.
4GG#/	.	8c#'\	.	.	.	.	.
.	.	8B'\J	.	.	.	.	.
FF#q/LL	.	.	.	.	.	.	.
GG#q/JJ	.	.	.	.	.	.	.
4AA'/	.	8B-'/L	.	.	.	.	.
.	.	8A'/J	.	.	.	.	.
[4d\	.	4r	.	.	.	.	.
=119	=119	=119	=119	=119	=119	=119	=119
(8d\L]	.	4G#/	.	1r	.	1r	.
8c#\)	.	.	.	.	.	.	.
8B'\	.	4A/	.	.	.	.	.
8A'\J	.	.	.	.	.	.	.
.	.	G#q/LL	.	.	.	.	.
.	.	Aq/JJ	.	.	.	.	.
8G#'\L	.	4Bn/	.	.	.	.	.
8d'\	.	.	.	.	.	.	.
8c#'\	.	[4ee\	.	.	.	.	.
8B'\J	.	.	.	.	.	.	.
=120	=120	=120	=120	=120	=120	=120	=120
4c#'\	.	(8ee\L]	.	1r	.	1r	.
.	.	8dd\)	.	.	.	.	.
4d\	.	8cc#'\	.	.	.	.	.
.	.	8b'\J	.	.	.	.	.
c#q/LL	.	.	.	.	.	.	.
dq/JJ	.	.	.	.	.	.	.
4e\	.	8a'\L	.	.	.	.	.
.	.	8ee'\	.	.	.	.	.
4fn\	.	8dd'\	.	.	.	.	.
.	.	8cc#'\J	.	.	.	.	.
=121	=121	=121	=121	=121	=121	=121	=121
eq/LL	.	.	.	.	.	.	.
fq/JJ	.	.	.	.	.	.	.
8f#\	.	4dd'\	.	1r	.	1r	.
4a\	.	.	.	.	.	.	.
.	.	4ee\	.	.	.	.	.
8g#\	.	.	.	.	.	.	.
.	.	ddq/LL	.	.	.	.	.
.	.	eeq/JJ	.	.	.	.	.
8a\L	.	4ff#'\	.	.	.	.	.
8D\	.	.	.	.	.	.	.
8E\	.	4g#\	.	.	.	.	.
8E\J	.	.	.	.	.	.	.
=122	=122	=122	=122	=122	=122	=122	=122
.	.	f#q/LL	.	.	.	.	.
.	.	g#q/JJ	.	.	.	.	.
4E\	.	8g#\	.	1r	.	4e'/	.
.	.	4b\	.	.	.	.	.
4r	.	.	.	.	.	4f#/	.
.	.	8a\	.	.	.	.	.
.	.	.	.	.	.	eq/LL	.
.	.	.	.	.	.	f#q/JJ	.
2r	.	8b\L	.	.	.	4g#'/	.
.	.	8E/J	.	.	.	.	.
.	.	4F#/	.	.	.	[4a/	.
=123	=123	=123	=123	=123	=123	=123	=123
.	.	Eq/LL	.	.	.	.	.
.	.	F#q/JJ	.	.	.	.	.
4FF#'/	.	(8f#\L	p	4aa'\	.	(8a/L]	.
.	.	8e\)	.	.	.	8g#/)	.
4GG#/	.	8d#'\	.	4bb\	.	8f#'/	.
.	.	8c#'\J	.	.	.	8e'/J	.
FF#q/LL	.	.	.	aaq/LL	.	.	.
GG#q/JJ	.	.	.	bbq/JJ	.	.	.
4AA'/	.	8F#/	.	4ccc#'\	.	8d#'/L	.
.	.	4F#/	.	.	.	8dn'/J	.
[4BB/	.	.	.	[4ddd\	.	4r	.
.	.	8B/	.	.	.	.	.
=124	=124	=124	=124	=124	=124	=124	=124
(8BB/L]	.	4c#'\	.	(8ddd\L]	.	4a'/	.
8AA/)	.	.	.	8ccc#\)	.	.	.
8GG#'/	.	4dn\	.	8bb'\	.	4b\	.
8FF#'/J	.	.	.	8aa'\J	.	.	.
.	.	c#q/LL	.	.	.	g#q/LL	.
.	.	dq/JJ	.	.	.	bq/JJ	.
8FFn'/L	.	8G#'/	.	8gg#'\L	.	4cc#'\	.
8EE'/J	.	4e\	.	8ggn'\J	.	.	.
4r	.	.	.	4r	.	[4dd\	.
.	.	8d\	.	.	.	.	.
=125	=125	=125	=125	=125	=125	=125	=125
4BB'/	.	(8B/L	.	4d'/	.	(8dd\L]	.
.	.	8A/)	.	.	.	8cc#\)	.
4C#/	.	8G#'/	.	4e/	.	8b'\	.
.	.	8F#'/J	.	.	.	8a'\J	.
BBq/LL	.	.	.	dq/LL	.	.	.
C#q/JJ	.	.	.	eq/JJ	.	.	.
4D'\	.	8Fn/	.	4B'/	.	8g#'/L	.
.	.	4E/	.	.	.	8gn'/J	.
[4E\	.	.	.	[4gn/	.	4r	.
.	.	8E/	.	.	.	.	.
=126	=126	=126	=126	=126	=126	=126	=126
(8E/L]	.	4D'/	.	(8g/L]	.	4f#'/	.
8D/)	.	.	.	8f#/)	.	.	.
8C#'/	.	4E/	.	8e'/	.	4g#/	.
8BB'/J	.	.	.	8d'/J	.	.	.
.	.	Dq/LL	.	.	.	f#q/LL	.
.	.	Eq/JJ	.	.	.	g#q/JJ	.
8BB'/L	.	4c#'\	.	8d'/L	.	4a'/	.
8AA'/J	.	.	.	8c#'/J	.	.	.
4r	.	[4f#\	.	4r	.	[4ddd\	.
=127	=127	=127	=127	=127	=127	=127	=127
4GG#'/	.	(8f#\L]	.	4b'\	.	(8ddd\L]	.
.	.	8e\)	.	.	.	8ccc#\)	.
4AA/	.	8d'\	.	4cc#\	.	8bb'\	.
.	.	8c#'\J	.	.	.	8aa'\J	.
GG#q/LL	.	.	.	bq/LL	.	.	.
AAq/JJ	.	.	.	cc#q/JJ	.	.	.
4BB'/	.	8B'\L	.	4dd'\	.	8gg#'\L	.
.	.	8f#'\	.	.	.	8ddd'\	.
*clefC4	*clefC4	*	*	*	*	*	*
[4e\	.	8e'\	.	[4ggn\	.	8ccc#'\	.
.	.	8d'\J	.	.	.	8bb'\J	.
=128	=128	=128	=128	=128	=128	=128	=128
(8e\L]	.	4a'\	.	(8gg\L]	.	4ccc#'\	.
8d\)	.	.	.	8ff#\)	.	.	.
8c#'\	.	4b\	.	8ee'\	.	4ddd\	.
8B'\J	.	.	.	8dd'\J	.	.	.
.	.	aq/LL	.	.	.	ccc#q/LL	.
.	.	bq/JJ	.	.	.	dddq/JJ	.
8A'\L	.	4cc#'\	.	8cc#'\L	.	4eee'\	.
8e'\	.	.	.	8ggn'\	.	.	.
8d'\	.	4dd\	.	8ff#'\	.	4fff#\	.
8c#'\J	.	.	.	8ee'\J	.	.	.
=129	=129	=129	=129	=129	=129	=129	=129
.	.	cc#q/LL	.	.	.	eeeq/LL	.
.	.	ddq/JJ	.	.	.	fff#q/JJ	.
4d'\	.	8a\	.	4ff#'\	.	8fff#\	.
.	.	4cc#\	p	.	.	4aaa\	p
4e\	p	.	.	4gg#\	p	.	.
.	.	8b\	.	.	.	8ggg#\	.
dq/LL	.	.	.	ff#q/LL	.	.	.
eq/JJ	.	.	.	gg#q/JJ	.	.	.
4f#'\	.	8a\	.	8dd\L	.	8aaa\L	.
.	.	4dd\	.	8aa\J	.	8fff#\	.
4g#\	.	.	.	4bb\	.	8eee\	.
.	.	8dd\	.	.	.	8eee\J	.
=130	=130	=130	=130	=130	=130	=130	=130
*M6/8	*M6/8	*M6/8	*M6/8	*M6/8	*M6/8	*M6/8	*M6/8
*MM40	*MM40	*MM40	*MM40	*MM40	*MM40	*MM40	*MM40
*clefC4	*clefG2	*	*	*	*	*	*
F#q/LL	.	.	.	aaq/LL	.	.	.
G#q/JJ	.	.	.	bbq/JJ	.	.	.
(16g#\LK	.	(8dd\	.	(16bb\LK	.	(8eee\L	.
8b\	.	.	.	8ddd\	.	.	.
.	.	[4ee\)	.	.	.	16aa\L	.
16a\k)	.	.	.	16ccc#\k)	.	16ee\	.
8a\J	.	.	.	[8ccc#\J	.	16cc#\	.
.	.	.	.	.	.	16dd\JJ	.
8a\L	.	16ee\LL]	.	16ccc#\LL]	.	16ee\LL	.
.	.	(16ee\J	.	(16cc#\J	.	16ff#\	.
8r	.	8dd\	.	8b\	.	16gg#\	.
.	.	.	.	.	.	16aa\	.
[8a\J	.	8cc#\J)	.	8a\J)	.	16bb\	.
.	.	.	.	.	.	16ccc#\JJ)	.
=131	=131	=131	=131	=131	=131	=131	=131
(8a\L]	.	8b\L	.	8e/L	.	8ddd\L	.
8g#\	.	8r	.	8r	.	8r	.
8f#\J	.	8e\J	.	8b/J	.	8ddd\J	.
8g#/L)	.	8e\	.	8b\L	.	8ddd\	.
8r	.	8r	.	8e\J 8dd\ 8bb\	.	8r	.
*clefF4	*clefF4	*	*	*	*	*	*
8EE/J	.	8r	.	8r	.	8r	.
=132	=132	=132	=132	=132	=132	=132	=132
2.r	.	(8.g#\L	.	8r	.	(8.bb\L	.
.	.	.	.	(16e/LL	.	.	.
.	.	16b\L	.	16g#/	.	16gg#\L	.
.	.	16dd\	.	16b/	.	16ee\	.
.	.	16cc#\JJ	.	16a/JJ	.	16ff#\JJ	.
.	.	16b\LL	.	16g#/LL	.	16gg#\LL	.
.	.	16a\	.	16f#/	.	16aa\	.
.	.	16g#\	.	16e/	.	16bb\	.
.	.	16f#\	.	16d/	.	16ccc#\	.
.	.	16e\)	.	16c#/	.	16ddd\	.
.	.	16e\JJ	.	16B/JJ)	.	16eee\JJ)	.
=133	=133	=133	=133	=133	=133	=133	=133
4r	.	(16e\LL	.	8A/L	.	8ccc#\L	.
.	.	16c#\	.	.	.	.	.
.	.	16d\	.	8r	.	8r	.
.	.	16e\	.	.	.	.	.
8r	.	16f#\	.	8A/J 8e/	.	8ccc#\J	.
.	.	16g#\JJ	.	.	.	.	.
4r	.	8a\)	.	8A/L 8e/	.	8ccc#\	.
.	.	8r	.	8e/J 8cc#/ 8aa/	.	8r	.
8AA/	.	8r	.	8r	.	8r	.
=134	=134	=134	=134	=134	=134	=134	=134
*clefC4	*clefC4	*	*	*	*	*	*
8r	.	8r	.	8r	.	(8.eee\L	.
(16a\LL	.	(16c#\LL	.	(16a\LL	.	.	.
16e\	.	16a\	.	16cc#\	.	16ccc#\L	.
16c#\	.	16cc#\	.	16ee\	.	16aa\	.
16d\JJ	.	16b\JJ	.	16dd\JJ	.	16bb\JJ	.
16e\LL	.	16a\LL	.	16cc#/LL	.	16ccc#\LL	.
16f#\	.	16g#\	.	16b/	.	16ddd\	.
16g#\	.	16f#\	.	16a/	.	16eee\	.
16a\)	.	16e\	.	16g#/	.	16fff#\	.
16a\	.	16d\	.	16f#/	.	16ggg#\	.
16a\JJ	.	16c#\JJ)	.	16e/JJ)	.	16aaa\JJ)	.
=135	=135	=135	=135	=135	=135	=135	=135
8gn\L	p	8cc#\L	p	8e/L	p	4aaa\	p
8r	.	8r	.	8r	.	.	.
8g\J	.	8cc#\J	.	8ee/J	.	8r	.
8g\L	.	8cc#\L	.	8ee/L	.	8aa\L	.
8r	.	8r	.	8c#/ 8e/	.	8r	.
8f#\J	.	8cc#\J	.	8ee/J	.	8aa#\J	.
=136	=136	=136	=136	=136	=136	=136	=136
8f#\L	.	8cc#\L	.	8ee\L	.	8aa#\L	.
8F#\	.	8r	.	8r	.	8r	.
8B\J	.	8f#\J	.	8dd#\J	.	8bb\J	.
8E\L	.	8b\L	.	8ddn\L	.	8gg#\L	.
8e\	.	8r	.	8r	.	8r	.
8A\J	.	8c#\J 8e\	.	8cc#\J	.	8aan\J	.
=137	=137	=137	=137	=137	=137	=137	=137
8d#/L	.	8f#/L	.	8ccn\L	.	8aa\L	.
*clefF4	*clefF4	*	*	*	*	*	*
8D#/	.	8r	.	8r	.	8r	.
8DD#/J	.	8F#/J	.	8a\J	.	8ccn\J	.
(8EE/L	.	8G#/L	.	(8g#/L	.	8b\L	.
8FF#/	.	8E/	.	8A/	.	8r	.
8GG#/J)	.	8E/J	.	8B/J)	.	8ee\J	.
=138	=138	=138	=138	=138	=138	=138	=138
(8.AA/L	p	(8E/L	.	(8.c#/L	.	8r	.
.	.	16A/L	.	.	.	(16cc#\LL	.
16EE/L	.	16E/	.	16e/L	.	16ee\	.
16CC#/	.	16C#/	.	16a/	.	16aa\	.
16DDn/JJ	.	16D/JJ	.	16g#/JJ	.	16gg#\JJ	.
16EE/LL	.	16E/LL	.	16f#/LL	.	16ff#\LL	.
16FF#/	.	16F#/	.	16e/	.	16ee\	.
16GG#/	.	16G#/	.	16d/	.	16dd\	.
16AA/	.	16A/	.	16c#/	.	16cc#\	.
16BB/	.	16B/	.	16B/	.	16b\	.
16C#/JJ)	.	16c#/JJ)	.	16A/JJ)	.	16a\JJ)	.
=139	=139	=139	=139	=139	=139	=139	=139
8D\L	.	8d\L	.	8G#/L	.	8g#/L	.
8r	.	8r	.	8r	.	8r	.
8D\J	.	8d\J	.	8B/J 8e/	.	8g#/J	.
8D\	.	8d\L	.	8B/ 8e/	.	8g#\L	.
8r	.	8e\J 8b\	.	8r	.	8r	.
8r	.	8r	.	8r	.	8g#\J 8ee\ 8bb\	.
=140	=140	=140	=140	=140	=140	=140	=140
8r	.	8r	.	(16e/LL	.	(8.bb\L	.
.	.	.	.	16g#/J	.	.	.
(16E\LL	.	(16e\LL	.	8b/	.	.	.
16G#\	.	16g#\	.	.	.	16gg#\L	.
16B\	.	16b\	.	16dd/L	.	16ee\	.
16A\JJ	.	16a\JJ	.	16cc#/JJ	.	16ff#\JJ	.
16G#\LL	.	16g#\LL	.	16b/LL	.	16gg#\LL	.
16F#\	.	16f#\	.	16a/	.	16aa\	.
16E\	.	16e\	.	16g#/	.	16bb\	.
16D\	.	16d\	.	16f#/	.	16ccc#\	.
16C#\	.	16c#\	.	16e/	.	16ddd\	.
16BB\JJ)	.	16B\JJ)	.	16d/JJ)	.	16eee\JJ)	.
=141	=141	=141	=141	=141	=141	=141	=141
(16AA/LL	.	8A/L	.	8e/L	.	8ccc#\L	.
16C#/	.	.	.	.	.	.	.
16E/	.	8r	.	8r	.	8r	.
16D/	.	.	.	.	.	.	.
16C#/	.	8A/J	.	8e/J	.	8ccc#\J	.
16BB/JJ	.	.	.	.	.	.	.
16AA/LL	.	8A\L	.	8e\L	.	8ccc#\L	.
16GG#/	.	.	.	.	.	.	.
16AA/	.	8A\J 8e\ 8cc#\	.	8r	.	8r	.
16FF#/	.	.	.	.	.	.	.
16EE/	.	8r	.	8cc#\J 8aa\	.	8a\J 8ee\ 8eee\	.
16DD/JJ)	.	.	.	.	.	.	.
=142	=142	=142	=142	=142	=142	=142	=142
(16DD/LL	.	4r	.	(8.ee\L	p	4r	.
16CC#/	.	.	.	.	.	.	.
16EE/	.	.	.	.	.	.	.
16AA/JJ)	.	.	.	16cc#\L	.	.	.
8r	.	8r	.	16g#\	.	8r	.
.	.	.	.	16a\JJ)	.	.	.
4r	.	16r	.	4r	.	(8.aa\L	.
.	.	(16C#/LL	.	.	.	.	.
.	.	16E/	.	.	.	.	.
.	.	16A/JJ)	.	.	.	16ggn\L	.
8r	.	8r	.	8r	.	16ee\	.
.	.	.	.	.	.	16ee#\JJ)	.
=143	=143	=143	=143	=143	=143	=143	=143
(16BB/LL	.	4r	.	(8.cc#/L	.	8ff#\	.
16AA#/	.	.	.	.	.	.	.
16C#/	.	.	.	.	.	8r	.
16F#/JJ)	.	.	.	16a#/L	.	.	.
8r	.	8r	.	16e#/	.	8r	.
.	.	.	.	16f#/JJ)	.	.	.
4r	.	16r	.	4r	.	(8.ff#\L	.
.	.	(16A#\LL	.	.	.	.	.
.	.	16c#\	.	.	.	.	.
.	.	16f#\JJ)	.	.	.	16een\L	.
8r	.	8r	.	8r	.	16cc#\	.
.	.	.	.	.	.	16ee\JJ)	.
=144	=144	=144	=144	=144	=144	=144	=144
16AAn/LL	.	4r	.	16f#/LL	.	16dd#\LK	.
(16GG#/	.	.	.	(16dd/	.	8r	.
16BB/	.	.	.	16b/	.	.	.
16E/	.	.	.	16dd/J	.	8r	.
16AA/J)	.	16r	.	8cc#/J)	.	.	.
8r	.	(16Fn/	.	.	.	(16b\Jk	.
.	.	16G#/LL	.	4r	.	16g#/LL	.
8r	.	16c#/	.	.	.	16b/	.
.	.	16F#/JJ)	.	.	.	16a/JJ)	.
(16F#/L	.	16r	.	.	.	16r	.
16C#/	.	8r	.	8r	.	8r	.
16D#/JJ	.	.	.	.	.	.	.
=145	=145	=145	=145	=145	=145	=145	=145
16B\LL	.	8r	.	4r	.	4r	.
16G#\	.	.	.	.	.	.	.
16E\JJ)	.	16r	.	.	.	.	.
16r	.	(16c#/LL	.	.	.	.	.
8r	.	16G#/	.	4r	.	4r	.
.	.	16A/JJ	.	.	.	.	.
4r	.	16d/LL	.	.	.	.	.
.	.	16B/	.	.	.	.	.
.	.	16G#/JJ)	.	16r	.	16r	.
.	.	16r	.	(16c#/LL	.	(16ee\LL	.
8r	.	8r	.	16G#/	.	16b\	.
.	.	.	.	16A#/JJ)	.	16cc#\JJ)	.
=146	=146	=146	=146	=146	=146	=146	=146
(16EE/LL	.	4r	.	[4.d/	p	[4.ff#\	p
16FF#/	.	.	.	.	.	.	.
16GG#/	.	.	.	.	.	.	.
16AA/	.	.	.	.	.	.	.
16BB/	.	8r	.	.	.	.	.
16C#/JJ	.	.	.	.	.	.	.
16D\LL	.	4r	.	(8d/L]	.	(8ff#\L]	.
16E\	.	.	.	.	.	.	.
16F#\	.	.	.	8c#/	.	8ee\	.
16G#\	.	.	.	.	.	.	.
16A\	.	(16F#/LL	.	8B/J)	.	8dd\J)	.
16B\JJ	.	16G#/JJ	.	.	.	.	.
=147	=147	=147	=147	=147	=147	=147	=147
*clefC4	*clefG2	*	*	*	*	*	*
16c#\LL	.	16A\LL	.	[4.B/	.	[4.dd\	.
16d\	.	16B\	.	.	.	.	.
16e\	.	16c#\	.	.	.	.	.
16f#\	.	16d\	.	.	.	.	.
16g#\	.	16e\	.	.	.	.	.
16a\JJ)	.	16f#\JJ	.	.	.	.	.
8b\L	.	16g#\LL	.	(8B/L]	.	(8dd\L]	.
.	.	16a\	.	.	.	.	.
*clefF4	*clefF4	*	*	*	*	*	*
8E\J	.	16b\	.	8A/	.	8cc#\	.
.	.	16cc#\	.	.	.	.	.
8r	.	16dd\	.	16G#/L	.	8b\J)	.
.	.	16ee\JJ)	.	16Gn/JJ)	.	.	.
=148	=148	=148	=148	=148	=148	=148	=148
2.FF#/	.	(16F#/LL	.	[4.e/	.	[4.ggn\	.
.	.	16G#/	.	.	.	.	.
.	.	16A#/	.	.	.	.	.
.	.	16B/	.	.	.	.	.
.	.	16c#/	.	.	.	.	.
.	.	16d/JJ	.	.	.	.	.
.	.	16e\LL	.	(8e/L]	.	(8gg\L]	.
.	.	16f#\	.	.	.	.	.
.	.	16g#\	.	8d/	.	8ff#\	.
.	.	16a#\	.	.	.	.	.
.	.	16b\	.	8c#/J)	.	8ee\J)	.
.	.	16cc#\JJ)	.	.	.	.	.
=149	=149	=149	=149	=149	=149	=149	=149
*clefC4	*clefC4	*	*	*	*	*	*
(16F#\LL	.	[4.F#/	.	[4.c#/	.	[4.ee\	.
16G#\	.	.	.	.	.	.	.
16A#\	.	.	.	.	.	.	.
16B\	.	.	.	.	.	.	.
16c#\	.	.	.	.	.	.	.
16d\JJ	.	.	.	.	.	.	.
16e\LL	.	(8.F#/L]	.	(8c#/L]	.	(8ee\L]	.
16fn\	.	.	.	.	.	.	.
16f#\	.	.	.	8B/	.	8dd\	.
16gn\)	.	16Gn/L)	.	.	.	.	.
16g\	.	(16G/	.	16A#/L	.	8cc#\J)	.
16g\JJ	.	16e/JJ)	.	16An/JJ)	.	.	.
=150	=150	=150	=150	=150	=150	=150	=150
(8.gn\L	p	(8.e\L	p	(16a\LL	p	(16cc#\LL	p
.	.	.	.	16cc#\	.	16aa\	.
.	.	.	.	16cc#\J)	.	16ggn\J)	.
16e\L	.	16c#\L	.	8r	.	8r	.
16c#\	.	16A\	.	.	.	.	.
16f#\JJ)	.	16d\JJ)	.	16a\Jk	.	16ff#\Jk	.
*clefF4	*clefF4	*	*	*	*	*	*
(8.D/L	.	(8.d/L	.	16r	.	16r	.
.	.	.	.	(16ee\LL	.	(16gg\LL	.
.	.	.	.	16dd\J)	.	16ff#\J)	.
16BB/L	.	16B/L	.	8r	.	8r	.
16GG#/	.	16G#/	.	.	.	.	.
16C#/JJ)	.	16c#/JJ)	.	16a#\Jk	p	16ee\Jk	p
=151	=151	=151	=151	=151	=151	=151	=151
(8.e\L	.	4r	.	(8.ggn\L	.	16r	.
.	.	.	.	.	.	(16ddd\LL	.
.	.	.	.	.	.	16ccc#\J)	.
16c#\L	.	.	.	16ee\L	.	8r	.
16A#\	.	8r	.	16cc#\	.	.	.
16d\JJ)	.	.	.	16ff#\JJ)	.	16bb\Jk	.
4r	.	(8.dd\L	.	(8.ff#\L	.	16r	.
.	.	.	.	.	.	(16ccc#\LL	.
.	.	.	.	.	.	16bb\J)	.
.	.	16b\L	.	16dd\L	.	8r	.
8r	.	16g#\	.	16b\	.	.	.
.	.	16cc#\JJ)	.	[16ee\JJ)	.	16aa\Jk	.
=152	=152	=152	=152	=152	=152	=152	=152
2.r	.	(16cc#\LL	.	16ee\LL]	.	16r	.
.	.	16a\	.	(16ee\	.	(16ccc#\LL	.
.	.	16f#\	.	16dd#\)	.	16cccn\)	.
.	.	16g#\	.	(16ddn\	.	(16ccc\	.
.	.	16b\	.	16dd\)	.	16bb\)	.
.	.	16e#\JJ	.	(16dd\JJ	.	(16bb\JJ	.
.	.	16f#\LL	.	16cc#\LL)	.	16aa\LL)	.
.	.	16a\	.	(16cc#\	.	(16aa\	.
.	.	16d#\	.	16ccn\)	.	16aa\)	.
.	.	16en\	.	(16b\	.	(16aa\	.
.	.	16f#\	.	16b\)	.	16gg#\)	.
.	.	16e\JJ)	.	(16b\JJ	.	(16gg#\JJ	.
=153	=153	=153	=153	=153	=153	=153	=153
4r	.	(16a\LL	.	8cc#/L)	.	8aa\)	.
.	.	16f#\	.	.	.	.	.
.	.	16d#\JJ)	.	16r	.	8r	.
.	.	16r	.	(16b/L	.	.	.
8r	.	8r	.	16f#/	.	8r	.
.	.	.	.	16g#/JJ)	.	.	.
8r	.	(16dn/LL	.	4r	.	(16dd\LL	.
.	.	16B/	.	.	.	16b\	.
16r	.	16G#/)	.	.	.	16g#\JJ)	.
(16f#\LL	.	(16d/	.	.	.	16r	.
16c#\	.	16A#/	.	8r	.	8r	.
16d\JJ)	.	16B/JJ)	.	.	.	.	.
=154	=154	=154	=154	=154	=154	=154	=154
[4.f#\	p	[4.d\	p	4r	.	(16G#/LL	p
.	.	.	.	.	.	16A/	.
.	.	.	.	.	.	16B/	.
.	.	.	.	.	.	16c#/	.
.	.	.	.	8r	.	16d/	.
.	.	.	.	.	.	16e/JJ	.
(8f#\L]	.	(8d\L]	.	16r	.	16f#/LL	.
.	.	.	.	(16G#/LL	.	16g#/	.
8e\	.	8c#\	.	16A/	.	16a/	.
.	.	.	.	16B/	.	16b/	.
8d\J)	.	8B\J)	.	16c#/	.	16cc#/	.
.	.	.	.	16d/JJ	.	16dd/JJ	.
=155	=155	=155	=155	=155	=155	=155	=155
[4.d\	p	[4.B/	p	16e/LL	p	16ee\LL	p
.	.	.	.	16f#/	.	16ff#\	.
.	.	.	.	16g#/	.	16gg#\	.
.	.	.	.	16a/	.	16aa\	.
.	.	.	.	16b/	.	16bb\	.
.	.	.	.	16cc#/JJ)	.	16ccc#\JJ)	.
(8d\L]	.	(8B/L]	.	(16dd\LL	.	(16ddd\LL	.
.	.	.	.	16dd#\)	.	16ddd#\)	.
8c#\	.	8A/	.	(16dd#\	.	(16ddd#\	.
.	.	.	.	16ee\)	.	16eee\)	.
8B\J)	.	16G#/L	.	16ee\	.	16eee\	.
.	.	16Gn/JJ)	.	16ee\JJ	.	16eee\JJ	.
=156	=156	=156	=156	=156	=156	=156	=156
2.FF#/	.	(16F#/LL	.	[4.ggn\	.	[4.eee\	.
.	.	16G#/	.	.	.	.	.
.	.	16A#/	.	.	.	.	.
.	.	16B/	.	.	.	.	.
.	.	16c#/	.	.	.	.	.
.	.	16d/JJ	.	.	.	.	.
.	.	16e\LL	.	(8gg\L]	.	(8eee\L]	.
.	.	16f#\	.	.	.	.	.
.	.	16g#\	.	8ff#\	.	8dddn\	.
.	.	16a#\	.	.	.	.	.
.	.	16b\	.	8ee\J)	.	8ccc#\J)	.
.	.	16cc#\JJ)	.	.	.	.	.
=157	=157	=157	=157	=157	=157	=157	=157
(16F#/LL	.	[4.F#/	.	[4.ee\	.	[4.ccc#\	.
16G#/	.	.	.	.	.	.	.
16A#/	.	.	.	.	.	.	.
16B/	.	.	.	.	.	.	.
16c#/	.	.	.	.	.	.	.
16d/JJ)	.	.	.	.	.	.	.
(16e\LL	.	(8.F#/L]	.	(8ee\L]	.	(8ccc#\L]	.
16f#\)	.	.	.	.	.	.	.
(16f#\	.	.	.	8dd\	.	8bb\	.
16gn\)	.	16Gn/L)	.	.	.	.	.
16g\	.	(16G/	.	8cc#\J)	.	16aa#\L	.
16g\JJ	.	16e/JJ)	.	.	.	16aan\JJ)	.
=158	=158	=158	=158	=158	=158	=158	=158
(8.E/L	.	(8.e\L	.	(16gn/LL	.	(8.ggn\L	.
.	.	.	.	16dd/	.	.	.
.	.	.	.	16cc#/J)	.	.	.
16C#/L	.	16c#\L	.	8r	p	16ee\L	.
16AAn/	.	16A\	.	.	.	16cc#\	.
16D/JJ)	.	16d\JJ)	.	16f#/Jk	.	16ff#\JJ)	.
(8.f#\L	.	(8.d/L	.	16r	.	16r	.
.	.	.	.	(16ee\LL	.	(16gg\LL	.
.	.	.	.	16dd\J)	.	16ff#\J)	.
16d\L	.	16B/L	.	8r	.	8r	.
16B\	.	16G#/	.	.	.	.	.
16e\JJ)	.	16c#/JJ)	.	16a#\Jk	p	16ee\Jk	p
=159	=159	=159	=159	=159	=159	=159	=159
16r	.	16r	.	(8.e/L	.	(8.ee\L	.
(16GGn/LL	.	(16B/LL	.	.	.	.	.
16FF#/J)	.	16A#/J)	.	.	.	.	.
8r	.	8r	.	16c#/L	.	16cc#\L	.
.	.	.	.	16A#/	.	16a#\	.
16FF#/Jk	p	16F#/Jk	p	16d/JJ)	.	16b\JJ)	.
16r	.	16r	.	(8.dd\L	.	(8.ddd\L	.
(16FFn/LL	.	(16An/LL	.	.	.	.	.
16EE/J)	.	16G#/J)	.	.	.	.	.
8r	.	8r	.	16b\L	.	16bb\L	.
.	.	.	.	16g#\	.	16gg#\	.
16EE/Jk	.	16E/Jk	.	16cc#\JJ)	.	16ccc#\JJ)	.
=160	=160	=160	=160	=160	=160	=160	=160
16r	.	16r	.	(16cc#/LL	.	(16ccc#\LL	.
(16E\LL	.	(16c#/LL	.	16an/	.	16aan\	.
16D#\)	.	16cn/)	.	16f#/	.	16ff#\	.
(16Dn\	.	(16B/	.	16g#/	.	16gg#\	.
16D\)	.	16B/)	.	16b/	.	16bb\	.
(16C#\JJ	.	(16B/JJ	.	16e#/JJ	.	16ee#\JJ	.
16C#/LL)	.	16A/LL)	.	16f#/LL	.	16ff#\LL	.
(16Cn/	.	(16A/	.	16a/	.	16aa\	.
16BB/)	.	16A/)	.	16d#/	.	16dd#\	.
(16BB/	.	(16G#/	.	16en/	.	16een\	.
16BB/)	.	16G#/)	.	16f#/	.	16ff#\	.
16BB/JJ	.	16G#/JJ	.	16e/JJ)	.	16ee\JJ)	.
=161	=161	=161	=161	=161	=161	=161	=161
16r	.	16r	.	(8.ee\L	.	(8.eee\L	.
(16BB\LL	p	(16D/LL	p	.	.	.	.
16AA\J)	.	16C#/J)	.	.	.	.	.
16r	.	16r	.	16cc#\L	.	16ccc#\L	.
8A\J	.	8c#/J 8e/	.	16a\	.	16aa\	.
.	.	.	.	16b\JJ	.	16bb\JJ	.
8A\L	.	8c#/L 8e/	.	16cc#\LL	.	16ccc#\LL	.
.	.	.	.	16ddn\	.	16dddn\	.
8r	.	8A/ 8e/ 8cc#/	.	16ee\	.	16eee\	.
.	.	.	.	16ff#\	.	16fff#\	.
8AA\J	.	8C#/J	.	16gg#\	.	16ggg#\	.
.	.	.	.	16aa\JJ)	.	16aaa\JJ)	.
=162	=162	=162	=162	=162	=162	=162	=162
*M2/4	*M2/4	*M2/4	*M2/4	*M2/4	*M2/4	*M2/4	*M2/4
*MM112	*MM112	*MM112	*MM112	*MM112	*MM112	*MM112	*MM112
*	*	*	*	*	*	*^	*
2r	.	2r	.	8aa\	.	8aaa\	4r	p
.	.	.	.	4r	.	(4.ee/	.	.
.	.	.	.	.	.	.	8r	.
.	.	.	.	8r	.	.	8a\	.
=163	=163	=163	=163	=163	=163	=163	=163	=163
*	*	*	*	*^	*	*	*	*
2r	.	2r	.	8r	4r	.	2ee/)	&((8a\&)	.
.	.	.	.	(4.e/	.	.	.	(4.a\)	.
.	.	.	.	.	8r	p	.	.	.
.	.	.	.	.	8B\	.	.	.	.
=164	=164	=164	=164	=164	=164	=164	=164	=164	=164
*^	*	*	*	*	*	*	*	*	*
8r	4r	.	2r	.	(2e/)	&(2B\&)	.	2ee/	(2g#\)	.
(4.E/	.	.	.	.	.	.	.	.	.	.
.	8r	p	.	.	.	.	.	.	.	.
.	8BB\	.	.	.	.	.	.	.	.	.
=165	=165	=165	=165	=165	=165	=165	=165	=165	=165	=165
*	*	*	*^	*	*	*	*	*	*	*
(2E/)	&(8BB\&)	.	8r	4r	.	(2e/)	&(8B\&)	.	&(8ee/&)	8g#\)	.
.	&(4.C#\&)	.	(4.c#/	.	p	.	4.A\	.	4.ee/	8r	.
.	.	.	.	8r	.	.	.	.	.	8r	.
.	.	.	.	8E\	.	.	.	.	.	(8a\	.
*v	*v	*	*	*	*	*	*	*	*	*	*
*	*	*v	*v	*	*	*	*	*	*	*
*	*	*	*	*	*	*	*v	*v	*
=166	=166	=166	=166	=166	=166	=166	=166	=166
&(8C#\L&)) 8E\	.	&(8E/L&)) 8c#/	.	8e/)	&(8A\&)	.	&(8a\&)) 8ee\	.
(8c#\J	.	(8e/J	.	8r	8r	.	4aa\	.
8d\)	.	8f#\L)	.	8r	4r	.	.	.
8r	.	(8a#\J	.	(8cc#/	.	.	[8ff#\	.
*	*	*	*	*v	*v	*	*	*
=167	=167	=167	=167	=167	=167	=167	=167
8r	.	8b\L)	.	8dd\)	.	8ff#\]	.
(8F#\	.	(8An\J	.	8r	.	4dd\	.
8G#\)	.	8B/L)	.	8r	.	.	.
8r	.	(8G#/J	.	[8e/	.	[8b\	.
=168	=168	=168	=168	=168	=168	=168	=168
8r	.	8A/L)	.	8e/L]	.	8b\]	.
(8AA/	.	(8A/J	.	(8e/J	.	4cc#\	.
8FF#/L)	.	8A/L)	.	8d#/L)	.	.	.
(8BB/J	.	(8F#/J	.	(8d#/J	.	[8a/	.
=169	=169	=169	=169	=169	=169	=169	=169
*	*	*^	*	*	*	*	*
4EE/)	.	8E/)	8r	.	4e/)	.	(8a/]	.
.	.	(4B/	4.E\	.	.	.	4g#/	.
4r	.	.	.	.	8r	.	.	.
.	.	8d/)	.	.	[8e/	.	8b\	.
=170	=170	=170	=170	=170	=170	=170	=170	=170
*^	*	*	*	*	*	*	*	*
8r	4r	.	2c#/	2E\	.	2A/ 2e/_	.	8a/)	.
(4.E/	.	.	.	.	.	.	.	8r	.
.	8r	.	.	.	.	.	.	4r	.
.	8AA\	.	.	.	.	.	.	.	.
=171	=171	=171	=171	=171	=171	=171	=171	=171	=171
*	*	*	*	*	*	*^	*	*	*
(2E/)	&(8AA\&)	.	[2B/	(2E\	.	8e/]	8B\	.	2r	.
.	&(4.GG#\&)	.	.	.	.	(4.e/	8r	.	.	.
.	.	.	.	.	.	.	8r	.	.	.
.	.	.	.	.	.	.	8B\	.	.	.
*	*	*	*	*	*	*v	*v	*	*	*
=172	=172	=172	=172	=172	=172	=172	=172	=172	=172
(2E/)	&(4.GG#\&)	.	8B/]	8E\)	.	&(4.B/&)) 4.e/	.	2r	.
.	.	.	4.b/	8r	.	.	.	.	.
.	.	.	.	8r	.	.	.	.	.
.	8BB\	.	.	(8e\	.	[8G#/	.	.	.
=173	=173	=173	=173	=173	=173	=173	=173	=173	=173
(2E/)	&(8BB\&)	.	8r	8e\)	.	(8G#/]	.	8r	.
.	&(4.C#\&)	.	4.c#/	8r	.	[4.A/) [4.e/	.	(4.ee/	.
.	.	.	.	8r	.	.	.	.	.
.	.	.	.	(8E\	.	.	.	.	.
*v	*v	*	*	*	*	*	*	*	*
=174	=174	=174	=174	=174	=174	=174	=174	=174
&(8C#\&)) 8E\	.	&(8c#/&)	8E\)	.	8A/] 8e/]	.	&(8a/L&)) 8ee/	.
*clefC4	*clefC4	*	*	*	*	*	*	*
4a\	.	8r	8r	.	8r	.	(8c#/J	.
.	.	8r	4r	.	8r	.	8d/)	.
[8f#\	.	8a#/	.	.	(8cc#\	.	8r	.
*	*	*v	*v	*	*	*	*	*
=175	=175	=175	=175	=175	=175	=175	=175
8f#\]	.	&(8b\&)	.	8dd\)	.	8r	.
4d\	.	4f#\	.	4ff#\	.	(8ccc#\	.
.	.	.	.	.	.	8ddd\)	.
[8B\	.	(8g#\	.	[8dd\	.	8r	.
=176	=176	=176	=176	=176	=176	=176	=176
8B\]	.	8e\L)	.	8dd\L]	.	8r	.
4c#\	.	(8A\J	.	(8cc#\J	.	(4ccc#\	.
.	.	8F#/L)	.	8a/L)	.	.	.
[8B\	.	[8F#/J	.	[8a/J	.	8ddd#\)	.
=177	=177	=177	=177	=177	=177	=177	=177
8B/]	.	(8F#/]	.	(8a/]	.	(8ddd#\	.
4.BB/	.	4E/)	.	4g#/)	.	4eee\)	.
.	.	(8B/	.	8r	.	8r	.
=178!|:	=178!|:	=178!|:	=178!|:	=178!|:	=178!|:	=178!|:	=178!|:
*>B	*>B	*>B	*>B	*>B	*>B	*>B	*>B
*	*	*^	*	*^	*	*	*
2BB/ 2EE\	.	(2B/)	4r	.	8r	4r	.	4r	.
.	.	.	.	.	(4.d/	.	.	.	.
.	.	.	8r	.	.	8r	.	8r	.
.	.	.	8E\	.	.	8G#\	.	[8bb\	.
=179	=179	=179	=179	=179	=179	=179	=179	=179	=179
2BB/ 2EE\	.	(2B/)	&(2E\&)	.	2d/)	&(2G#\&)	.	(8bb\L]	.
.	.	.	.	.	.	.	.	8ccc#\J	.
.	.	.	.	.	.	.	.	8ddd\L	.
.	.	.	.	.	.	.	.	8eee\J)	.
*	*	*	*	*	*v	*v	*	*	*
=180	=180	=180	=180	=180	=180	=180	=180	=180
*	*	*	*	*	*	*	*^	*
8AA/ 8EE\	.	8A/)	&(8E\&)	.	4c#/	.	8ccc#/	4r	.
8r	.	8r	8r	.	.	.	(4.ee/	.	.
4r	.	4r	4r	.	8r	.	.	8r	.
.	.	.	.	.	(8e/	.	.	8a\	.
=181	=181	=181	=181	=181	=181	=181	=181	=181	=181
*clefC4	*clefG2	*	*	*	*	*	*	*	*
*	*	*	*	*	*^	*	*	*	*
4r	.	8r	4r	.	2e/	(8e\)	.	(2ee/)	&(2a\&)	.
.	.	(4.Gn/	.	.	.	(4.A\)	.	.	.	.
8r	.	.	8r	.	.	.	.	.	.	.
[8E/	.	.	8C#\	.	.	.	.	.	.	.
=182	=182	=182	=182	=182	=182	=182	=182	=182	=182	=182
(8E/L]	.	2Gn/)	&(2C#\&)	.	&(2e/&)	2A\)	.	2ee/)	&(2a\&)	.
8F#/J	.	.	.	.	.	.	.	.	.	.
8Gn/L	.	.	.	.	.	.	.	.	.	.
8A/J)	.	.	.	.	.	.	.	.	.	.
*	*	*v	*v	*	*	*	*	*	*	*
*	*	*	*	*v	*v	*	*	*	*
*	*	*	*	*	*	*v	*v	*
=183	=183	=183	=183	=183	=183	=183	=183
(4.f#\	.	8D/L	.	8A/L 8f#/	.	4a/	.
.	.	(8d/J	.	(8f#/J	.	.	.
.	.	4B/)	.	8dd\L)	.	8r	.
8g#\	.	.	.	(8b\J	.	(8bb\	.
=184	=184	=184	=184	=184	=184	=184	=184
4.a\	.	8r	.	8cc#\L)	.	8ee\)	.
.	.	(8F#/	.	(8aa\J	.	8r	.
.	.	8f#\L	.	8dd\L)	.	8r	.
8b\)	.	8g#\J)	.	(8ee\J	.	[8eee\	.
=185	=185	=185	=185	=185	=185	=185	=185
(8cc#\L	.	(8a\L	.	8a/)	.	(8eee\L]	.
8dd\J	.	8d\J	.	(4a/	.	8fff#\J	.
8cc#\L	.	8e\L)	.	.	.	8eee\L	.
8ee\J)	.	(8e\J	.	8g#/	.	8bb\J)	.
=186	=186	=186	=186	=186	=186	=186	=186
*>B1	*>B1	*>B1	*>B1	*>B1	*>B1	*>B1	*>B1
8cc#/	p	8A/)	p	8a/)	p	8ccc#\	p
*clefF4	*clefF4	*	*	*	*	*	*
(4.BB/	.	8r	.	8r	.	8r	.
.	.	4r	.	4r	.	4r	.
=187:|!	=187:|!	=187:|!	=187:|!	=187:|!	=187:|!	=187:|!	=187:|!
*>B2	*>B2	*>B2	*>B2	*>B2	*>B2	*>B2	*>B2
*clefC4	*clefG2	*	*	*	*	*	*
8cc#/)	.	8A/L	p	8a/L	p	8ccc#\L	p
*clefF4	*clefF4	*	*	*	*	*	*
4.E/	p	(8B/J	.	(8g#/J	.	(8dd\J	.
.	.	8A/L	.	8a/L	.	8cc#\L	.
.	.	8E/J) 8B/	.	8b/J)	.	8ee\J)	.
=188	=188	=188	=188	=188	=188	=188	=188
*>C	*>C	*>C	*>C	*>C	*>C	*>C	*>C
*M9/4	*M9/4	*M9/4	*M9/4	*M9/4	*M9/4	*M9/4	*M9/4
*MM120	*MM120	*MM120	*MM120	*MM120	*MM120	*MM120	*MM120
4r	.	4r	.	4r	.	4r	.
(4AA'/	.	(4E'/	.	(4c#'/	.	(4a'/	.
4AA'/)	.	4E'/)	.	4c#'/)	.	4a'/)	.
(4AA'/	.	(4E'/	.	(4c#'/	.	(4a'/	.
4GG#'/	.	4E'/	.	4d'/	.	4b'\	.
4AA'/)	.	4E'/)	.	4c#'/)	.	4a'/)	.
(4AA'/	.	(4E'/	.	(4c#'/	.	(4a'/	.
4GG#'/	.	4E'/	.	4d'/	.	4b'\	.
4AA'/)	.	4E'/)	.	4c#'/)	.	4a'/)	.
=189	=189	=189	=189	=189	=189	=189	=189
4r	.	4r	.	4r	.	4r	.
(4GG#'/	.	(4E'/	.	(4B'/	.	(4dd'\	.
4GG#'/)	.	4E'/)	.	4B'/)	.	4dd'\)	.
(4GG#'/	.	(4E'/	.	(4B'/	.	(4dd'\	.
4FF##'/	.	4E'/	.	4A#'/	.	4ee'\	.
4GG#'/)	.	4E'/)	.	4B'/)	.	4dd'\)	.
(4GG#'/	.	(4E'/	.	(4B'/	.	(4dd'\	.
4FF##'/	.	4E'/	.	4A#'/	.	4ee'\	.
4GG#'/)	.	4E'/)	.	4B'/)	.	4dd'\)	.
=190	=190	=190	=190	=190	=190	=190	=190
4r	.	4r	.	4r	.	4r	.
(4D'\	.	(4E'/	.	(4G#'/ 4g#'/	.	(4b'\	.
4D'\)	.	4E'/)	.	4G#'/) 4g#'/	.	4b'\)	.
(4D'\	.	(4E'/	.	(4G#'/ 4g#'/	.	(4b'\	.
4C#'^/	.	4E'^/ 4A#'^/	.	4Gn'^/ 4gn'^/	.	4cc#'^\	.
4D'\)	.	4E'/)	.	4G#'/) 4g#'/	.	4b'\)	.
(4D'\	.	(4E'/	.	(4G#'/ 4g#'/	.	(4b'\	.
4C#'^/	.	4E'^/ 4A#'^/	.	4Gn'^/ 4gn'^/	.	4cc#'^\	.
4D'\)	.	4E'/)	.	4G#'/) 4g#'/	.	4b'\)	.
=191	=191	=191	=191	=191	=191	=191	=191
4r	.	4r	.	4r	.	4r	.
(4C#'/	.	(4E'/	.	(4A'/ 4a'/	.	(4ee'\	.
4C#'/)	.	4E'/)	.	4A'/) 4a'/	.	4ee'\)	.
(4C#'/	.	(4E'/	.	(4A'/ 4a'/	.	(4ee'\	.
4BB#'^/	.	4D#'^/	.	4A'^/ 4a'^/	.	4ff#'^\	.
4C#'/)	.	4E'/)	.	4A'/) 4a'/	.	4ee'\)	.
(4C#'/	.	(4E'/	.	(4A'/ 4a'/	.	(4ee'\	.
4BB#'^/	.	4D#'^/	.	4A'^/ 4a'^/	.	4ff#'^\	.
4C#'/)	.	4E'/)	.	4A'/) 4a'/	.	4ee'\)	.
=192	=192	=192	=192	=192	=192	=192	=192
4r	.	4r	.	4r	.	4r	.
(4GGn'/ 4AA'/	.	(4Gn'/ 4A'/	.	(4gn'/ 4a'/	.	(4ee'\	.
4GG'/) 4AA'/	.	4G'/) 4A'/	.	4g'/) 4a'/	.	4ee'\)	.
(4GG'/ 4AA'/	.	(4G'/ 4A'/	.	(4g'/ 4a'/	.	(4ee'\	.
4GG'/ 4AA'/	.	4G'/ 4A'/	.	4g'/ 4a'/	.	4aa'\	.
4GG'/) 4AA'/	.	4G'/) 4A'/	.	4g'/) 4a'/	.	4aa'\)	.
(4GG'/ 4AA'/	.	(4G'/ 4A'/	.	(4g'/ 4a'/	.	(4aa'\	.
4GG'/ 4AA'/	.	4G'/ 4A'/	.	4g'/ 4a'/	.	4aa'\	.
4GG'/) 4AA'/	.	4G'/) 4A'/	.	4g'/) 4a'/	.	4aa'\)	.
=193	=193	=193	=193	=193	=193	=193	=193
(4FF#'/ 4AA'/	.	4r	.	(4a'/	.	[2.aa\	.
4FF#'/ 4AA'/	.	(4F#'/ 4A'/	.	4dd#'\	.	.	.
4FF#'/) 4AA'/	.	4F#'/) 4A'/	.	4dd#'\)	.	.	.
(4FF#'/ 4AA'/	.	(4F#'/ 4A'/	.	(4dd#'\	.	(2.aa\]	.
4FF#'/ 4AA'/	.	4F#'/ 4A'/	.	4dd#'\	.	.	.
4FF#'/) 4AA'/	.	4F#'/) 4A'/	.	4dd#'\)	.	.	.
(4FF#'/ 4AA'/	.	(4F#'/ 4A'/	.	(4dd#'\	.	(4aa\)	.
4FF#'/ 4AA'/	.	4F#'/ 4A'/	.	4dd#'\	.	4gg#\	.
4FF#'/) 4AA'/	.	4F#'/) 4A'/	.	4dd#'\)	.	4ff#\)	.
=194	=194	=194	=194	=194	=194	=194	=194
(4GG#'/	p	(4E'/ 4B'/	p	(4ddn\	.	(4ff#\	.
4GG#'/	.	4E'/ 4B'/	.	4cc#\	p	4ee\	p
4GG#'/)	.	4E'/) 4B'/	.	4b\)	.	4dd\)	.
.	.	.	.	.	.	ddq/	.
(4AA'/	.	(4E'/ 4c#'/	.	(4e/	.	(4cc#\	.
4AA'/	.	4E'/ 4c#'/	.	4g#/	.	4b\	.
4AA'/)	.	4E'/) 4c#'/	.	4a/	.	4cc#\	.
4AA'/	.	(4E/ 4c#/	.	4cc#\	.	4ee\	.
(4D\	.	4F#/)	.	4b\	.	4dd\	.
4D#\)	.	4F#/	.	4a/)	.	4cc#\)	.
=195	=195	=195	=195	=195	=195	=195	=195
(4E'\	.	(4F#/	.	(4a/	.	(4cc#\	.
4E'\	.	4G#/	.	4g#/	.	4b\	.
4E'\)	.	4d#\	.	4f#/)	.	4a/)	.
(4E'\	.	4e\	.	4B/	.	(4g#/	.
4E'\	.	4F#/	.	(4B/	.	4a/	.
4E'\)	.	4A/	.	4d#/)	.	4f#/)	.
(4E\	.	4G#/	.	(4dn'/	.	(4e/	.
4Dn\	.	4A/	.	4d'/	.	4f#/	.
4BB/)	.	4E/) 4B/	.	4d'/) 4e'/	.	4g#/)	.
=196	=196	=196	=196	=196	=196	=196	=196
4AA/	.	4E/	.	4c#/ 4e/	.	4a/	.
4r	.	(4cc#'\	.	(4e'/ 4ee'/	.	(4aa'\	.
(16FF#/LL	.	4cc#'\)	.	4e'/) 4ee'/	.	4aa'\)	.
16EE/	.	.	.	.	.	.	.
16FF#/	.	.	.	.	.	.	.
16EE/JJ)	.	.	.	.	.	.	.
4AA/	.	(4cc#'\	.	(4e'/ 4ee'/	.	(4aa'\	.
4r	.	4ddn'\	.	4e'/ 4ee'/	.	4bb'\	.
4r	.	4cc#'\)	.	4e'/) 4ee'/	.	4aa'\)	.
2r	.	(4cc#'\	.	(4e'/ 4ee'/	.	(4aa'\	.
.	.	4dd'\	.	4e'/ 4ee'/	.	4bb'\	.
4r	.	4cc#'\)	.	4e'/) 4ee'/	.	4aa'\)	.
=197	=197	=197	=197	=197	=197	=197	=197
2r	.	(4cc#'\	.	(4e'/ 4ee'/	.	(4aa'\	.
.	.	4g#'\	.	4e'/ 4ee'/	.	4ddd'\	.
(16FF#/LL	.	4g#'\)	.	4e'/) 4ee'/	.	4ddd'\)	.
16EE/	.	.	.	.	.	.	.
16FF#/	.	.	.	.	.	.	.
16EE/JJ)	.	.	.	.	.	.	.
4BB/	.	(4g#'\	.	(4e'/ 4ee'/	.	(4ddd'\	.
4r	.	4f##'\	.	4e'/ 4ee'/	.	4eee'\	.
4r	.	4g#'\)	.	4e'/) 4ee'/	.	4ddd'\)	.
2r	.	(4g#'\	.	(4e'/ 4ee'/	.	(4ddd'\	.
.	.	4f##'\	.	4e'/ 4ee'/	.	4eee'\	.
4r	.	4g#'\)	.	4e'/) 4ee'/	.	4ddd'\)	.
=198	=198	=198	=198	=198	=198	=198	=198
2r	.	(4g#'\ 4b'\	.	(4e'/ 4ee'/	.	(4ccc#'\	.
.	.	4g#'\ 4b'\	.	4e'/ 4ee'/	.	4bb'\	.
(16FF#/LL	.	4g#'\) 4b'\	.	4e'/) 4ee'/	.	4bb'\)	.
16EE/	.	.	.	.	.	.	.
16FF#/	.	.	.	.	.	.	.
16EE/JJ)	.	.	.	.	.	.	.
4D\	.	(4g#'\ 4b'\	.	(4e'/ 4ee'/	.	(4bb'\	.
4r	.	4g#'^\ 4b'^\	.	4e'^/ 4ee'^/	.	4ccc#'^\	.
4r	.	4g#'\) 4b'\	.	4e'/) 4ee'/	.	4bb'\)	.
2r	.	(4g#'\ 4b'\	.	(4e'/ 4ee'/	.	(4bb'\	.
.	.	4g#'^\ 4b'^\	.	4e'^/ 4ee'^/	.	4ccc#'^\	.
4r	.	4g#'\) 4b'\	.	4e'/) 4ee'/	.	4bb'\)	.
=199	=199	=199	=199	=199	=199	=199	=199
2r	.	(4g#'\ 4b'\	.	(4e'/ 4ee'/	.	(4bb'\	.
.	.	4a'\ 4cc#'\	.	4e'/ 4ee'/	.	4eee'\	.
(16FF#/LL	.	4a'\) 4cc#'\	.	4e'/) 4ee'/	.	4eee'\)	.
16EE/	.	.	.	.	.	.	.
16FF#/	.	.	.	.	.	.	.
16EE/JJ)	.	.	.	.	.	.	.
4C#/	.	(4a'\ 4cc#'\	.	(4e'/ 4ee'/	.	(4eee'\	.
4r	.	4b#'^\	.	4a'^\ 4aa'^\	.	4fff#'\	.
4r	.	4cc#'\)	.	4a'\) 4aa'\	.	4eee'\)	.
2r	.	(4cc#'\	.	(4a'\ 4aa'\	.	(4eee'\	.
.	.	4b#'^\	.	4a'^\ 4aa'^\	.	4fff#'\	.
4r	.	4cc#'\)	.	4a'\) 4aa'\	.	4eee'\)	.
=200	=200	=200	=200	=200	=200	=200	=200
*	*	*clefG2	*clefG2	*	*	*	*
(4GGn'/ 4AA'/	.	(4cc#'\	.	(4gn'/ 4a'/	.	(4eee'\	.
4GG'/ 4AA'/	.	4cc#'\	.	4g'/ 4a'/	.	4aaa'\	.
4GG'/) 4AA'/	.	4cc#'\)	.	4g'/) 4a'/	.	4aaa'\)	.
(4GG'/ 4AA'/	.	(4cc#'\	.	(4g'/ 4a'/	.	(4aaa'\	.
4GG'/ 4AA'/	.	4cc#'\	.	4g'/ 4a'/	.	4aaa'\	.
4GG'/) 4AA'/	.	4cc#'\)	.	4g'/) 4a'/	.	4aaa'\)	.
(4GG'/ 4AA'/	.	(4cc#'\	.	(4g'/ 4a'/	.	(4aaa'\	.
4GG'/ 4AA'/	.	4cc#'\	.	4g'/ 4a'/	.	4aaa'\	.
4GG'/) 4AA'/	.	4cc#'\)	.	4g'/) 4a'/	.	4aaa'\)	.
=201	=201	=201	=201	=201	=201	=201	=201
(4FF#'/ 4AA'/	.	(4dd#'\	.	(4f#'/ 4a'/	.	[2.aaa\	.
4FF#'/ 4AA'/	.	4dd#'\	.	4f#'/ 4a'/	.	.	.
4FF#'/) 4AA'/	.	4dd#'\)	.	4f#'/) 4a'/	.	.	.
(4FF#'/ 4AA'/	.	(4dd#'\	.	(4f#'/ 4a'/	.	(2.aaa\]	.
4FF#'/ 4AA'/	.	4dd#'\	.	4f#'/ 4a'/	.	.	.
4FF#'/) 4AA'/	.	4dd#'\)	.	4f#'/) 4a'/	.	.	.
(4FF#'/ 4AA'/	.	(4dd#'\	.	(4f#'/ 4a'/	.	(4aaa\)	.
4FF#'/ 4AA'/	.	4ee'\	.	4f#'/ 4a'/	.	4ggg#\	.
4FF#'/) 4AA'/	.	4dd#'\)	.	4f#'/) 4a'/	.	4fff#\)	.
=202	=202	=202	=202	=202	=202	=202	=202
(4GG#'/	p	(4ddn'\	p	(4e'/ 4b'/	p	(4fff#\	p
4G#'\	.	4cc#'\	.	4e'/ 4ee'/	.	4eee\	.
4G#'\)	.	4b'\)	.	4e'/) 4ee'/	.	4ddd\)	.
.	.	bq/	.	.	.	dddq/	.
(4A'\	.	(4a'/	.	(4e'/ 4ee'/	.	(4ccc#\	.
4A'\	.	4g#'/	.	4e'/ 4ee'/	.	4bb\	.
4A'\)	.	4a'/)	.	4e'/) 4ee'/	.	4ccc#\)	.
(4A\	.	(4cc#\	.	(4e/ 4ee/	.	(4eee\	.
4d\	.	4f#/ 4b/	.	4dd\	.	4ddd\	.
4d#\)	.	4a/)	.	4cc#\)	.	4ccc#\)	.
=203	=203	=203	=203	=203	=203	=203	=203
*	*	*clefC3	*clefC3	*	*	*	*
(4d#\	.	(4a\	.	(4cc#\	.	(4ccc#\	.
4e\)	.	4g#\	.	4b\	.	4bb\	.
4e\	.	4c#\)	.	4a/)	.	4aa\)	.
4e\	.	(4B/	.	(4g#/	.	(4gg#\	.
4E\	.	4c#\	.	4e/	.	4aa\	.
4E\	.	4A/	.	4d#/)	.	4ff#\	.
(4E\	.	4G#/	.	(4B/	.	4ee\	.
4F#\	.	4A/	.	4B/	.	4dd#\	.
4G#\)	p	4E/)	p	4B/)	p	4ddn\)	p
=204	=204	=204	=204	=204	=204	=204	=204
2r	.	2r	.	2r	.	1r	p
(16FF#/LL	f	4r	.	4r	.	.	.
16EE/	.	.	.	.	.	.	.
16FF#/	.	.	.	.	.	.	.
16EE/JJ)	.	.	.	.	.	.	.
4BB'/	.	4r	.	4r	.	.	.
4r	.	(4D'/	.	(4dn'/	.	1r	.
4r	.	4D'/)	pp	4d'/)	pp	.	.
2r	.	4D'/	.	4d'/	.	.	.
.	.	(4A#'/	.	(4a#'/	.	.	.
4r	.	4A#'/)	.	4a#'/)	.	4r	.
=205	=205	=205	=205	=205	=205	=205	=205
2r	.	(4A#'/	.	(4a#'/	.	4r	.
.	.	4d'\	.	4dd'\	.	(4aa#'\	pp
(16FF#/LL	pp	4d'\)	.	4dd'\)	.	4aa#'\)	.
16EE/	.	.	.	.	.	.	.
16FF#/	.	.	.	.	.	.	.
16EE/JJ)	.	.	.	.	.	.	.
2r	.	(4d\	.	(4dd'\	.	(4aa#\	.
.	.	4G#/)	.	4e'/ 4b'/	.	4bb\)	.
(16FF#/LL	.	4G#/	.	4e'/) 4b'/	.	4bb\	.
16EE/	.	.	.	.	.	.	.
16FF#/	.	.	.	.	.	.	.
16EE/JJ)	.	.	.	.	.	.	.
2r	.	(4G#/	.	(4e'/ 4b'/	.	(4bb\	.
.	.	4An/	.	4e'/ 4cc#'/	.	4aan\	.
(16FF#/LL	.	4B/)	.	4e'/) 4dd'/	.	4gg#\	.
16EE/	.	.	.	.	.	.	.
16FF#/	.	.	.	.	.	.	.
16EE/JJ)	.	.	.	.	.	.	.
=206	=206	=206	=206	=206	=206	=206	=206
2r	.	(4G#/	.	(4e'/ 4b'/	.	4bb\	.
.	.	4A/)	.	4e'/ 4cc#'/	.	4aa\	.
(16DD/LL	ff	4E/ 4A/	.	4e'/) 4ee'/	.	4ggn\)	.
16CC#/	.	.	.	.	.	.	.
16DD/	.	.	.	.	.	.	.
16CC#/JJ)	.	.	.	.	.	.	.
4GGn'/	.	4r	.	4r	.	2r	.
4r	.	(4Gn'/	pp	(4gn'/	pp	.	.
4r	.	4G'/)	.	4g'/)	.	4r	.
2r	.	4G'/	.	4g'/	.	2r	.
.	.	(4c#'\	.	(4cc#'\	.	.	.
4r	.	4c#'\)	.	4cc#'\)	.	4r	.
=207	=207	=207	=207	=207	=207	=207	=207
2r	.	(4c#'\	.	(4cc#'\	.	4r	.
.	.	4C#'/ 4Gn'/	.	4c#'/ 4gn'/	.	(4ggn'\	pp
16DD/LL	.	4C#'/) 4G'/	.	4c#'/) 4g'/	.	4gg'\)	.
16CC#/	.	.	.	.	.	.	.
16DD/	.	.	.	.	.	.	.
16CC#/JJ	.	.	.	.	.	.	.
4GGn'/	.	(4C#'/ 4G'/	.	(4c#'/ 4g'/	.	(4gg'\	.
(4gn'\	.	4a#'\	.	4ee'\	.	4ccc#'\	.
4g'\)	.	4a#'\)	.	4ee'\)	.	4ccc#'\)	.
(4g\	.	(4a#\	.	(4ee\	.	(4ccc#\	.
4f#\)	.	4b\	.	4dd\	.	4ddd\	.
4f#\	.	4a#\)	.	4cc#\)	.	4eee\)	.
=208	=208	=208	=208	=208	=208	=208	=208
4f#\	.	4a#\	.	(4cc#\	.	(4eee\	.
(4f#\	.	(4a#\	.	4ee\	.	4ccc#\	.
4B\)	.	4f#\)	.	4dd\)	.	4ddd\)	.
4B\	.	(4f#'\	.	(4dd'\	.	(4ddd\	.
(4B\	.	4f#'\	.	4dd'\	.	4fff#\	.
4c#\)	.	4f#'\)	.	4a'/)	.	4fff#\)	.
(4c#'\	.	(4f#\	.	(4a/	.	(4fff#\	.
4c#'\	.	4g#\	.	4b\)	.	4eee#\	.
4c#'\)	.	4e#\)	.	4b\	.	4ggg#\)	.
=209	=209	=209	=209	=209	=209	=209	=209
(4d'\	.	(4e#\	.	(4b\	.	(4ggg#\	.
4d'\	.	4f#\)	.	4a/)	.	4fff#\	.
4d'\)	.	4f#\	.	4a/	.	4aaa\)	.
(4d'\	.	(4f#'\	.	(4a'/	.	(4aaa'\	.
4D'\	.	4F#'/ 4An'/	.	4f#'/ 4a'/	.	4aaa'\	.
4BB'/)	.	4F#'/) 4A'/	.	4f#'/) 4a'/	.	4aaa'\)	.
(4BB'/	.	(4F#'/ 4A'/	.	(4f#'/ 4a'/	.	(4aaa\	.
4BB'/	.	4F#'/ 4A'/	.	4f#'/ 4a'/	.	4fff#\	.
4BB'/)	.	4F#'/) 4A'/	.	4f#'/) 4a'/	.	4ddd#\)	.
=210	=210	=210	=210	=210	=210	=210	=210
(4D'\	p	(4F#'/ 4A'/	p	(4f#'/ 4a'/	p	(4fff#\	p
4D'\	.	4F#'/ 4A'/	.	4f#'/ 4a'/	.	4dddn\	.
4D'\)	.	4F#'/) 4A'/	.	4f#'/) 4a'/	.	4bb\)	.
(4E'\	.	(4A'/	.	(4a/	.	(4ddd\	.
4E'\	.	4A'/	.	4cc#\	.	4ccc#\	.
4E'\)	.	4A'/)	.	4ccn\)	.	4eee\	.
(4E'\	.	(4F#/	.	(4cn/	.	4ddd#\	.
4E'\)	.	4G#/	.	4B/	.	4dddn\)	.
(16FF#/LL	.	4B/)	.	4d/)	.	4gg#\	.
16EE/	.	.	.	.	.	.	.
16FF#/	.	.	.	.	.	.	.
16EE/JJ)	.	.	.	.	.	.	.
=211	=211	=211	=211	=211	=211	=211	=211
(4EE/	.	(4G#/	.	(4d/	.	(4bb\	.
4AA/)	.	4A/	.	4c#/)	.	4aa\)	.
4AA/	.	4C#/)	.	(4c#/	.	(4aa\	.
4AA/	.	4C#/	.	4B/	.	4gg#\	.
(4AA/	.	(4C#/	.	4c#/	.	4aa\	.
4BB/)	.	4D#/	.	4A/	.	4ff#\	.
4BB/	.	4E/	.	4G#/	.	4ee\	.
(4BB/	.	4F#/	.	4a/	.	4dd#\	.
4E\)	.	4G#/)	.	4b\)	.	4ddn\)	.
=212	=212	=212	=212	=212	=212	=212	=212
2r	p	2r	p	2r	p	2r	p
(16FF#/LL	f	4r	.	4r	.	4r	.
16EE/	.	.	.	.	.	.	.
16FF#/	.	.	.	.	.	.	.
16EE/JJ)	.	.	.	.	.	.	.
4BB'/	.	4r	.	4r	.	2r	.
4r	.	(4Dn'/	p	(4d'/	.	.	.
4r	.	4D'/)	.	4d'/)	p	(16ff#\LL	f
.	.	.	.	.	.	16ee\	.
.	.	.	.	.	.	16ff#\	.
.	.	.	.	.	.	16ee\JJ)	.
2r	.	4D'/	.	4d'/	.	4bb'\	.
.	.	(4A#'/	pp	(4a#'/	pp	(4aa#'\	pp
(16FF#/LL	pp	4A#'/)	.	4a#'/)	.	4aa#'\)	.
16EE/	.	.	.	.	.	.	.
16FF#/	.	.	.	.	.	.	.
16EE/JJ)	.	.	.	.	.	.	.
=213	=213	=213	=213	=213	=213	=213	=213
2r	.	(4A#'/	.	(4a#'/	.	(4aa#'\	.
.	.	4d'\	.	4dd'\	.	4ddd'\	.
(16FF#/LL	.	4b'\)	.	4bb'\)	.	4ddd'\)	.
16EE/	.	.	.	.	.	.	.
16FF#/	.	.	.	.	.	.	.
16EE/JJ)	.	.	.	.	.	.	.
2r	.	(4b\	.	(4gg#\	.	(4ddd\	.
.	.	4an\)	.	4aan\)	.	4ccc#\)	.
(16FF#/LL	.	4a\	.	4aa\	.	4ccc#\	.
16EE/	.	.	.	.	.	.	.
16FF#/	.	.	.	.	.	.	.
16EE/JJ)	.	.	.	.	.	.	.
2r	.	(4a\	.	(4cc#\	.	(4ccc#\	.
.	.	4g#\)	.	4dd\)	.	4bb\)	.
(16FF#/LL	.	4g#\	.	4b\	.	(4eee\	.
16EE/	.	.	.	.	.	.	.
16FF#/	.	.	.	.	.	.	.
16EE/JJ)	.	.	.	.	.	.	.
=214	=214	=214	=214	=214	=214	=214	=214
2r	.	(4g#\	.	(4b\	.	4ddd\	.
.	.	4e\)	.	4a/)	.	4ccc#\	.
(16FF#/LL	f	4A\ 4e\	.	4a/	.	4eee\)	.
16EE/	.	.	.	.	.	.	.
16FF#/	.	.	.	.	.	.	.
16EE/JJ)	.	.	.	.	.	.	.
4GGn'/	.	4r	.	4r	.	2r	.
(4GG'/	.	(4Gn'/	f	(4gn'/	f	.	.
4GG'/)	.	4G'/)	.	4g'/)	.	(16dd\LL	f
.	.	.	.	.	.	16cc#\	.
.	.	.	.	.	.	16dd\	.
.	.	.	.	.	.	16cc#\JJ)	.
(4GG'/	.	4G'/	.	4g'/	.	4ggn'\	.
4GG'/)	pp	(4c#'\	pp	(4cc#'\	pp	(4ccc#'\	pp
(16GG/LL	.	4c#'\)	.	4cc#'\)	.	4ccc#'\)	.
16FF#/	.	.	.	.	.	.	.
16GG/	.	.	.	.	.	.	.
16FF#/JJ)	.	.	.	.	.	.	.
=215	=215	=215	=215	=215	=215	=215	=215
2r	.	(4c#\	.	(4cc#'\	.	(4ccc#\	.
.	.	4A#/)	.	4cc#'\	.	4eee\)	.
(16GGn/LL	.	4A#/	.	4cc#'\)	.	4eee\	.
16FF#/	.	.	.	.	.	.	.
16GG/	.	.	.	.	.	.	.
16FF#/JJ)	.	.	.	.	.	.	.
2r	.	(4A#/	.	(4cc#\	.	(4eee\	.
.	.	4B/)	.	4dd\)	.	4ddd\)	.
(16GG/LL	.	4F#/	.	4b\	.	4ddd\	.
16FF#/	.	.	.	.	.	.	.
16GG/	.	.	.	.	.	.	.
16FF#/JJ)	.	.	.	.	.	.	.
2r	.	(4F#/	.	(4b\	.	(4ddd\	.
.	.	4A#/)	.	4cc#\)	.	4ccc#\	.
(16GG/LL	.	4A#/	.	4cc#\	.	4eee\)	.
16FF#/	.	.	.	.	.	.	.
16GG/	.	.	.	.	.	.	.
16FF#/JJ)	.	.	.	.	.	.	.
=216	=216	=216	=216	=216	=216	=216	=216
2r	.	(4A#/	.	(4cc#\	.	(4eee\	.
.	.	4B/)	.	4dd\)	.	4ddd\	.
(16C#/LL	.	4B/	.	4dd\	.	4fff#\)	.
16BB/	.	.	.	.	.	.	.
16C#/	.	.	.	.	.	.	.
16BB/JJ)	.	.	.	.	.	.	.
2r	.	(4B'/	.	(4dd'\	.	(4fff#'\	.
.	.	4B'/	.	4dd'\	.	4fff#'\	.
(16DD/LL	.	4c#'\)	.	4a'/)	.	4fff#'\)	.
16CC#/	.	.	.	.	.	.	.
16DD/	.	.	.	.	.	.	.
16CC#/JJ)	.	.	.	.	.	.	.
2r	.	(4C#/	.	(4a/	.	(4fff#\	.
.	.	4G#/	.	4b\)	.	4eee#\	.
16DD/LL	.	4E#/)	.	4b\	.	4ggg#\)	.
16DD/	.	.	.	.	.	.	.
16DD/	.	.	.	.	.	.	.
16DD/JJ	.	.	.	.	.	.	.
=217	=217	=217	=217	=217	=217	=217	=217
2r	.	(4Fn/	.	(4b\	.	(4ggg#\	.
.	.	4F#/) 4An/	.	4f#/) 4a/	.	4fff#\	.
(16EE/LL	.	(4F#'/ 4A'/	.	(4f#'/ 4a'/	.	4aaa\)	.
16DD/	.	.	.	.	.	.	.
16EE/	.	.	.	.	.	.	.
16DD/JJ)	.	.	.	.	.	.	.
2r	.	4F#'/ 4A'/	.	4f#'/ 4a'/	.	(4aaa'\	.
.	.	4F#'/ 4A'/	.	4f#'/ 4a'/	.	4aaa'\	.
(16C#/LL	.	4F#'/) 4A'/	.	4f#'/) 4a'/	.	4aaa'\)	.
16BB/	.	.	.	.	.	.	.
16C#/	.	.	.	.	.	.	.
16BB/JJ)	.	.	.	.	.	.	.
2r	.	(4F#'/ 4A'/	.	(4f#'/ 4a'/	.	(4aaa\	.
.	.	4F#'/ 4A'/	.	4f#'/ 4a'/	.	4fff#\	.
16BB/LL	.	4F#'/) 4A'/	.	4f#'/) 4a'/	.	4ddd#\)	.
16BB/	.	.	.	.	.	.	.
16BB/	.	.	.	.	.	.	.
16BB/JJ	.	.	.	.	.	.	.
=218	=218	=218	=218	=218	=218	=218	=218
2r	p	(4F#'/ 4A'/	.	(4f#'/ 4a'/	p	(4fff#\	p
.	.	4F#'/ 4A'/	p	4f#'/ 4a'/	.	4dddn\	.
(16EE/LL	.	4F#'/) 4A'/	.	4f#'/) 4a'/	.	4bb\	.
16DD/	.	.	.	.	.	.	.
16EE/	.	.	.	.	.	.	.
16DD/JJ)	.	.	.	.	.	.	.
2r	.	4E/ 4A/	.	4e/ 4a/	.	4ddd\	.
.	.	4E/ 4A/	.	(4e/ 4a/	.	4ccc#\	.
(16FF#/LL	.	(4E/	.	4cc#\	.	4eee\	.
16EE/	.	.	.	.	.	.	.
16FF#/	.	.	.	.	.	.	.
16EE/JJ)	.	.	.	.	.	.	.
2r	.	4F#/	.	4ccn\	.	4ddd#\	.
.	.	4G#/	.	4b\	.	4dddn\	.
(16FF#/LL	.	4B/)	.	4d/)	.	4gg#\)	.
16EE/	.	.	.	.	.	.	.
16FF#/	.	.	.	.	.	.	.
16EE/JJ)	.	.	.	.	.	.	.
=219	=219	=219	=219	=219	=219	=219	=219
2r	.	(4G#/	.	(4d/	.	(4bb\	.
.	.	4A/	.	4c#/	.	4aa\	.
(16BB/LL	.	4C#/	.	4e/	.	4ggn\	.
16AA/	.	.	.	.	.	.	.
16BB/	.	.	.	.	.	.	.
16AA/JJ)	.	.	.	.	.	.	.
2r	.	4D/	.	4f#/	.	4ff#\	.
.	.	4E/	.	4Gn/	.	4ee\	.
(16D/LL	.	4F#/	.	4A/	.	4dd\	.
16AA/	.	.	.	.	.	.	.
16D/	.	.	.	.	.	.	.
16AA/JJ)	.	.	.	.	.	.	.
2r	.	4G#/)	.	4B/	.	4cc#\	.
.	.	(4G#/	.	4d/	.	4b\	.
(16BB/LL	.	4A/)	.	4c#/)	.	4ee\)	.
16AA/	.	.	.	.	.	.	.
16BB/	.	.	.	.	.	.	.
16AA/JJ)	.	.	.	.	.	.	.
=220	=220	=220	=220	=220	=220	=220	=220
2r	.	(4C#/	.	(4A/	.	(4ee\	.
.	.	4D/	.	4B/	.	4a/	.
(16BB/LL	.	4E/	.	4c#/	.	4gn/	.
16AA/	.	.	.	.	.	.	.
16BB/	.	.	.	.	.	.	.
16AA/JJ)	.	.	.	.	.	.	.
2r	.	4F#/	.	4d/	.	4f#/	.
.	.	4Gn/	.	4e/	.	4e/	.
(16D/LL	.	4F#/	.	4f#/	.	4d/	.
16AA/	.	.	.	.	.	.	.
16D/	.	.	.	.	.	.	.
16AA/JJ)	.	.	.	.	.	.	.
2r	.	4E/	.	4A/	.	4c#/	.
.	.	4D/	.	4G#/	.	4B/	.
(16BB/LL	.	4C#/)	.	4A/)	.	4e/)	.
16AA/	.	.	.	.	.	.	.
16BB/	.	.	.	.	.	.	.
16AA/JJ)	.	.	.	.	.	.	.
=221	=221	=221	=221	=221	=221	=221	=221
4FF#/	p	4D#/	p	4A/	p	(2.a/	.
4r	.	4r	.	4r	.	.	.
4r	.	4r	.	4r	.	.	.
4F#\	.	4A/	.	4d#/	.	(12a/L)	.
.	.	.	.	.	.	12g#/	.
.	.	.	.	.	.	12f#/	.
4r	.	4r	.	4r	.	12e/	.
.	.	.	.	.	.	12d#/	.
.	.	.	.	.	.	12f#/	.
4r	.	4r	.	4r	.	12a/	.
.	.	.	.	.	.	12b/	.
.	.	.	.	.	.	12dd#/J	.
2r	.	2r	.	2r	.	12ff#\L	.
.	.	.	.	.	.	12ee\	.
.	.	.	.	.	.	12dd#\	.
.	.	.	.	.	.	12aa\	.
.	.	.	.	.	.	12gg#\	.
.	.	.	.	.	.	12ff#\	.
4r	.	4r	.	4r	.	12ccc#\	.
.	.	.	.	.	.	12bb\	.
.	.	.	.	.	.	12aa\J)	.
=222	=222	=222	=222	=222	=222	=222	=222
[2.E\	.	[2.B/	.	[2.dn/	.	(2.aa\	.
4E\]	.	4B/]	.	4d/]	.	(12aa\L)	.
.	.	.	.	.	.	12bb\	.
.	.	.	.	.	.	12aa\	.
4r	.	4r	.	4r	.	8gg#\	.
.	.	.	.	.	.	8aa\	.
4r	.	4r	.	4r	.	8bb\	.
.	.	.	.	.	.	8ccc#\J)	.
4r	.	4r	.	4r	.	4dddn\	.
(8d\L	.	(8e\L	.	(8g#/L	.	4r	.
8c#\	.	8f#\	.	8a/	.	.	.
8B\	.	8g#\	.	8b/	.	4r	.
8A\J)	.	8a\J)	.	8cc#/J)	.	.	.
=223	=223	=223	=223	=223	=223	=223	=223
4G#\	.	(2.B/	.	4e/ 4dd/	.	1r	.
4r	.	.	.	4r	.	.	.
4r	.	.	.	4r	.	.	.
4EE/	.	12B/L)	.	4e/ 4dd/	.	.	.
.	.	12E/	.	.	.	.	.
.	.	12G#/	.	.	.	.	.
4r	.	12B/	.	4r	.	1r	.
.	.	12c#/	.	.	.	.	.
.	.	12d/	.	.	.	.	.
4r	.	12e/	.	4r	.	.	.
.	.	12f#/	.	.	.	.	.
.	.	12g#/J	.	.	.	.	.
2r	.	12a\L	.	2r	.	.	.
.	.	12b\	.	.	.	.	.
.	.	12cc#\	.	.	.	.	.
.	.	12dd\	.	.	.	.	.
.	.	12dd#\	.	.	.	.	.
.	.	12ee\	.	.	.	.	.
4r	.	12ff#\	.	4r	.	4r	.
.	.	12ee\	.	.	.	.	.
.	.	&(12ddn\J&)	.	.	.	.	.
=224	=224	=224	=224	=224	=224	=224	=224
2r	.	(2.dd\	.	2r	.	2r	.
4r	.	.	.	4r	.	4r	.
(4E\	.	12dd\L)	.	(4gn/	.	2r	.
.	.	(12ee\	.	.	.	.	.
.	.	12dd\	.	.	.	.	.
(8E/L)	.	8cc#\	.	8g/L)	.	.	.
8D/	.	8dd\	.	8f#/	.	.	.
8C#/	.	8ee\	.	8e/	.	4r	.
8BB/J)	.	8ff#\J	.	&(8d/J&)	.	.	.
4AA/	.	4gg#\)	.	4c#/	.	4r	.
4r	.	(8gn\L	.	(8a\L	.	(8cc#\L	.
.	.	8f#\	.	8b\	.	8dd\	.
4r	.	8e\	.	8cc#\	.	8ee\	.
.	.	8d\J)	.	8dd\J)	.	8ff#\J)	.
=225	=225	=225	=225	=225	=225	=225	=225
*clefC4	*clefG2	*	*	*	*	*	*
(2.e\	.	4c#\	.	4ee\	.	4a\ 4ggn\	.
.	.	4r	.	4r	.	4r	.
.	.	4r	.	4r	.	4r	.
12e\L)	.	4C#/	.	4a/	.	4ee\ 4gg\	.
(12A\	.	.	.	.	.	.	.
12B\	.	.	.	.	.	.	.
12c#\	.	4r	.	4r	.	4r	.
12d\	.	.	.	.	.	.	.
12e\	.	.	.	.	.	.	.
12f#\	.	4r	.	4r	.	4r	.
12g#\	.	.	.	.	.	.	.
12a\J	.	.	.	.	.	.	.
12b\L	.	2r	.	2r	.	2r	.
12cc#\	.	.	.	.	.	.	.
12dd\	.	.	.	.	.	.	.
12ee\	.	.	.	.	.	.	.
12dd\	.	.	.	.	.	.	.
12cc#\	.	.	.	.	.	.	.
12b\	.	4r	.	4r	.	4r	.
12a\	.	.	.	.	.	.	.
12gn\J)	.	.	.	.	.	.	.
=226	=226	=226	=226	=226	=226	=226	=226
4f#\	.	4A#/	.	(2.cc#\	.	4ccc#\	.
4r	.	4r	.	.	.	4r	.
4r	.	4r	.	.	.	4r	.
*clefF4	*clefF4	*	*	*	*	*	*
4AA#/	.	4F#/ 4c#/	.	12ccn\L)	.	4ccc#\	.
.	.	.	.	(12f#\	.	.	.
.	.	.	.	12a#\	.	.	.
4r	.	4r	.	12cc\	.	4r	.
.	.	.	.	12ff#\	.	.	.
.	.	.	.	12aa#\	.	.	.
4r	.	4r	.	12ccc#\	.	4r	.
.	.	.	.	12bb\	.	.	.
.	.	.	.	12aa#\J	.	.	.
2r	.	2r	.	12ggn\L	.	2r	.
.	.	.	.	12ff#\	.	.	.
.	.	.	.	12ee#\	.	.	.
.	.	.	.	12ff#\	.	.	.
.	.	.	.	12ccn\	.	.	.
.	.	.	.	12dd\	.	.	.
4r	.	4r	.	12een\	.	4r	.
.	.	.	.	12cc\	.	.	.
.	.	.	.	12ff#\J)	.	.	.
=227	=227	=227	=227	=227	=227	=227	=227
4An\	.	4f#\	.	4dd#\	.	(2.bb\	.
4r	.	4r	.	4r	.	.	.
4r	.	4r	.	4r	.	.	.
4G#\	.	4B/	.	4e/ 4ddn/	.	(12bb\L)	.
.	.	.	.	.	.	12aa\	.
.	.	.	.	.	.	12gg#\	.
4r	.	4r	.	4r	.	12ff#\	.
.	.	.	.	.	.	12ee\	.
.	.	.	.	.	.	12dd#\	.
4r	.	4r	.	4r	.	12ee\	.
.	.	.	.	.	.	12ff#\	.
.	.	.	.	.	.	12ddn\J	.
4A\	.	4c#\	.	4e/	.	12cc#\L	.
.	.	.	.	.	.	12dd\	.
.	.	.	.	.	.	12cc#\	.
4r	.	4r	.	4r	.	12ee\	.
.	.	.	.	.	.	12dd\	.
.	.	.	.	.	.	12cc#\	.
4D\	p	4B/	p	4f#/	p	12ee\	.
.	.	.	.	.	.	12dd\	.
.	.	.	.	.	.	12b\J)	.
=228	=228	=228	=228	=228	=228	=228	=228
4r	.	2r	.	2r	.	(2.b\	.
(4E\	.	.	.	.	.	.	.
4G#\	p	4r	.	4r	.	.	.
4B\)	.	4r	.	2r	.	(2.b\)	p
4r	.	(4e\	.	.	.	.	.
4r	.	4g#\	p	4r	.	.	.
2r	.	4b\)	.	4r	.	(2.b\)	.
.	.	4r	.	(4ee\	p	.	.
4r	.	4r	.	4gg#\	.	.	.
=229	=229	=229	=229	=229	=229	=229	=229
4r	.	2r	.	4bb\)	.	4b\)	.
(4E\	.	.	.	4r	.	(2cc#\	.
4A\	.	4r	.	4r	.	.	.
4c#\)	.	4r	.	2r	.	(2.cc#\)	.
4r	.	(4e\	.	.	.	.	.
4r	.	4a\	.	4r	.	.	.
2r	.	4cc#\)	.	4r	.	(2.cc#\)	.
.	.	4r	.	(4ee\	.	.	.
4r	.	4r	.	4aa\	.	.	.
=230	=230	=230	=230	=230	=230	=230	=230
4r	.	2r	.	(4ccc#\)	.	4cc#\)	.
(4E\	.	.	.	4cccn\)	.	(2ccn\	.
4A\	.	4r	.	4r	.	.	.
4cn\)	.	4r	.	2r	.	(2.cc\)	ppp
4r	.	(4e\	.	.	.	.	.
4r	.	4a\	.	4r	.	.	.
2r	.	4ccn\)	.	4r	.	(2cc\)	.
.	.	4r	.	(4ee\	.	.	.
4r	.	4r	.	4aa\	.	8cc\L)	.
.	.	.	.	.	.	(8b\J	.
=231	=231	=231	=231	=231	=231	=231	=231
4r	.	2r	.	4cccn\)	.	4ccn\)	.
(4Fn\	ppp	.	.	4r	.	(2cc\	.
4A\	.	4r	.	4r	.	.	.
4cn\)	.	4r	.	2r	.	(2.cc\)	ppp
4r	.	(4fn\	.	.	.	.	.
4r	.	4a\	ppp	4r	.	.	.
2r	.	4ccn\)	.	4r	.	(2cc\)	.
.	.	4r	.	(4ffn\	ppp	.	.
4r	.	4r	.	4aa\	.	8cc\L)	.
.	.	.	.	.	.	(8b\J	.
=232	=232	=232	=232	=232	=232	=232	=232
*k[]	*k[]	*k[]	*k[]	*k[]	*k[]	*k[]	*k[]
*M2/4	*M2/4	*M2/4	*M2/4	*M2/4	*M2/4	*M2/4	*M2/4
*MM112	*MM112	*MM112	*MM112	*MM112	*MM112	*MM112	*MM112
8G\L	.	8en\L	.	8ccc\L)	.	8cc\)	.
8G\J	.	8c\J	.	8en\J	p	(4cc\	.
8G\	p	8c\	p	8e/	.	.	.
8r	.	8r	.	8r	.	16ddn\LL	p
.	.	.	.	.	.	16cc\JJ)	.
=233	=233	=233	=233	=233	=233	=233	=233
8r	.	8r	.	8r	.	8b\	.
8G\	.	8d\	.	8f/	.	(4b\	.
8G\	.	8d\	.	8f/	.	.	.
8r	.	8r	.	8r	.	16cc\LL	.
.	.	.	.	.	.	16b\JJ)	.
=234	=234	=234	=234	=234	=234	=234	=234
8r	.	8r	.	8r	.	8ff\	.
8G\	.	8B/	.	8d/	.	(4ff\	.
8G\	.	8B/	.	8d/	.	.	.
8r	.	8r	.	8r	.	16gg\LL	.
.	.	.	.	.	.	16ff\JJ)	.
=235	=235	=235	=235	=235	=235	=235	=235
8r	.	8r	.	8r	.	8ee\	.
8G\	.	8c\	.	8e/	.	(4ee\	.
8G\	.	8c\	.	8e/	.	.	.
8r	.	8r	.	8r	.	16ff\LL	.
.	.	.	.	.	.	16ee\JJ)	.
=236	=236	=236	=236	=236	=236	=236	=236
8r	.	8r	.	8r	.	8ee\	.
8c\	.	8e\	.	8g/	.	(4ee\	.
8c\	.	8e\	.	8g/	.	.	.
8r	.	8r	.	8r	.	16ff\LL	.
.	.	.	.	.	.	16ee\JJ)	.
=237	=237	=237	=237	=237	=237	=237	=237
8r	.	8r	.	8r	.	8ee\	.
8B\	.	8d\	.	8g#/	.	(4ee\	.
8B\	.	8d\	.	8g#/	.	.	.
8r	.	8r	.	8r	.	16ff\LL	.
.	.	.	.	.	.	16ee\JJ)	.
=238	=238	=238	=238	=238	=238	=238	=238
8r	.	8r	.	8r	.	8ee\	.
8A\	.	8c\	.	8a/	.	(4ee\	.
8A\	.	8c\	.	8a/	.	.	.
8r	.	8r	.	8r	.	16ff\LL	.
.	.	.	.	.	.	16ee\JJ)	.
=239	=239	=239	=239	=239	=239	=239	=239
8r	.	8r	.	8r	.	8ee\	.
8G#\	.	8B/	.	8b\	.	(4ee\	.
8G#\	.	8B/	.	8b\	.	.	.
8r	.	8r	.	8r	.	16ff\LL	.
.	.	.	.	.	.	16ee\JJ)	.
=240	=240	=240	=240	=240	=240	=240	=240
2r	.	2r	.	2r	.	8ee\	.
.	.	.	.	.	.	(4ee\	.
.	.	.	.	.	.	16ff\LL	.
.	.	.	.	.	.	16ee\JJ)	.
=241	=241	=241	=241	=241	=241	=241	=241
2r	.	2r	.	2r	.	(8ee\L	.
.	.	.	.	.	.	16ff\L	.
.	.	.	.	.	.	16ee\JJ)	.
.	.	.	.	.	.	(8ee\L	.
.	.	.	.	.	.	16ff#\L	.
.	.	.	.	.	.	16ee\JJ)	.
=242	=242	=242	=242	=242	=242	=242	=242
2r	.	2r	.	2r	.	(24ee\LL	p
.	.	.	.	.	.	24ff#\	.
.	.	.	.	.	.	24ee\	.
.	.	.	.	.	.	24ff#\	.
.	.	.	.	.	.	24ee\	.
.	.	.	.	.	.	24ff#\JJ)	.
.	.	.	.	.	.	(4ee\	pp
=243	=243	=243	=243	=243	=243	=243	=243
2r	.	2r	.	2r	.	8.ee\L)	.
.	.	.	.	.	.	16dd#\Jk	.
.	.	.	.	.	.	16ddn/LK	.
.	.	.	.	.	.	8e/	.
.	.	.	.	.	.	16ee/Jk	.
=244	=244	=244	=244	=244	=244	=244	=244
*k[f#c#g#]	*k[f#c#g#]	*k[f#c#g#]	*k[f#c#g#]	*k[f#c#g#]	*k[f#c#g#]	*k[f#c#g#]	*k[f#c#g#]
.	.	.	.	.	.	dd#q/LLL	.
.	.	.	.	.	.	eeq/JJJ	.
(64AA/LLLL	p	8E/ 8A/	p	8c#/ 8a/	p	8.cc#\L	p
64C#/J	.	.	.	.	.	.	.
32E/JJJ)	.	.	.	.	.	.	.
16r	.	.	.	.	.	.	.
(64AA/LLLL	.	(4E/ 4A/	.	(4c#/ 4a/	.	.	.
64C#/J	.	.	.	.	.	.	.
32E/JJJ)	.	.	.	.	.	.	.
16r	.	.	.	.	.	32b\LL	.
.	.	.	.	.	.	32cc#\JJJ	.
(64AA/LLLL	.	.	.	.	.	8.ccc#\L	.
64C#/J	.	.	.	.	.	.	.
32E/JJJ)	.	.	.	.	.	.	.
16r	.	.	.	.	.	.	.
(64AA/LLLL	.	16E/LL 16B/	.	16b/LL	.	.	.
64C#/J	.	.	.	.	.	.	.
32E/JJJ)	.	.	.	.	.	.	.
16r	.	16A/JJ	.	16a/JJ	.	32bb\LL	.
.	.	.	.	.	.	32ccc#\JJJ	.
=245	=245	=245	=245	=245	=245	=245	=245
(64BB/LLLL	.	8G#/)	.	8g#/)	.	8.e/L	.
64D/J	.	.	.	.	.	.	.
32E/JJJ)	.	.	.	.	.	.	.
16r	.	.	.	.	.	.	.
(64BB/LLLL	.	(4G#/	.	(4g#/	.	.	.
64D/J	.	.	.	.	.	.	.
32E/JJJ)	.	.	.	.	.	.	.
16r	.	.	.	.	.	32d#/LL	.
.	.	.	.	.	.	32e/JJJ	.
(64BB/LLLL	.	.	.	.	.	8.ddn\L	.
64D/J	.	.	.	.	.	.	.
32E/JJJ)	.	.	.	.	.	.	.
16r	.	.	.	.	.	.	.
(64BB/LLLL	.	16A/LL	.	16a/LL	.	.	.
64D/J	.	.	.	.	.	.	.
32E/JJJ)	.	.	.	.	.	.	.
16r	.	16G#/JJ	.	16g#/JJ	.	32ccn\LL	.
.	.	.	.	.	.	32dd\JJJ	.
=246	=246	=246	=246	=246	=246	=246	=246
(64GG#/LLLL	.	8d\)	.	8dd\)	.	16.e/LL	.
64BB/J	.	.	.	.	.	.	.
32E/JJJ)	.	.	.	.	.	.	.
16r	.	.	.	.	.	.	.
.	.	.	.	.	.	64d#/LL	.
.	.	.	.	.	.	64e/JJJJ	.
(64GG#/LLLL	.	(4E/ 4d/	.	(4dd\	.	16.b/LL	.
64BB/J	.	.	.	.	.	.	.
32E/JJJ)	.	.	.	.	.	.	.
16r	.	.	.	.	.	.	.
.	.	.	.	.	.	64a#/LL	.
.	.	.	.	.	.	64b/JJJJ	.
(64GG#/LLLL	.	.	.	.	.	8.bb\L	.
64BB/J	.	.	.	.	.	.	.
32E/JJJ)	.	.	.	.	.	.	.
16r	.	.	.	.	.	.	.
(64GG#/LLLL	.	16e\LL	.	16ee\LL	.	.	.
64BB/J	.	.	.	.	.	.	.
32E/JJJ)	.	.	.	.	.	.	.
16r	.	16d\JJ	.	16dd\JJ	.	32aa#\LL	.
.	.	.	.	.	.	32bb\JJJ	.
=247	=247	=247	=247	=247	=247	=247	=247
(64AA/LLLL	.	8E/) 8c#/	.	8cc#\)	.	8.e/L	.
64C#/J	.	.	.	.	.	.	.
32E/JJJ)	.	.	.	.	.	.	.
16r	.	.	.	.	.	.	.
(64AA/LLLL	.	(4E'/ 4c#'/	.	(4e'/ 4cc#'/	.	.	.
64C#/J	.	.	.	.	.	.	.
32E/JJJ)	.	.	.	.	.	.	.
16r	.	.	.	.	.	32d#/LL	.
.	.	.	.	.	.	32e/JJJ	.
(64AA/LLLL	.	.	.	.	.	16.ee\LL	.
64C#/J	.	.	.	.	.	.	.
32E/JJJ)	.	.	.	.	.	.	.
16r	.	.	.	.	.	.	.
.	.	.	.	.	.	64dd#\LL	.
.	.	.	.	.	.	64ee\JJJJ	.
(64AA/LLLL	.	16d\LL	.	16dd\LL	.	16.aan\LL	.
64C#/J	.	.	.	.	.	.	.
32E/JJJ)	.	.	.	.	.	.	.
16r	.	16c#\JJ	.	16cc#\JJ	.	.	.
.	.	.	.	.	.	64gg#\LL	.
.	.	.	.	.	.	64aa\JJJJ	.
=248	=248	=248	=248	=248	=248	=248	=248
(64CC#/LLLL	.	8a\)	.	8aa\)	.	8.e/L	.
64EE/J	.	.	.	.	.	.	.
32AA/JJJ)	.	.	.	.	.	.	.
16r	.	.	.	.	.	.	.
(64CC#/LLLL	.	4A\ 4a\	.	(4aa\	.	.	.
64EE/J	.	.	.	.	.	.	.
32AA/JJJ)	.	.	.	.	.	.	.
16r	.	.	.	.	.	32d#/LL	.
.	.	.	.	.	.	32e/JJJ	.
(64CC#/LLLL	.	.	.	.	.	16.ee\LL	.
64EE/J	.	.	.	.	.	.	.
32AA/JJJ)	.	.	.	.	.	.	.
16r	.	.	.	.	.	.	.
.	.	.	.	.	.	64ddn\LL	.
.	.	.	.	.	.	64ee\JJJJ	.
(64CC#/LLLL	.	16A\LL 16gn\	.	16ggn\LL	.	16.aa\LL	.
64EE/J	.	.	.	.	.	.	.
32AA/JJJ)	.	.	.	.	.	.	.
16r	.	16e#\JJ	.	16ee#\JJ)	.	.	.
.	.	.	.	.	.	64gg#\LL	.
.	.	.	.	.	.	64aa\JJJJ	.
=249	=249	=249	=249	=249	=249	=249	=249
(64DD/LLLL	.	(8e#\	.	(8ee#\	.	16.d/LL	.
64FF#/J	.	.	.	.	.	.	.
32AA/JJJ)	.	.	.	.	.	.	.
16r	.	.	.	.	.	.	.
.	.	.	.	.	.	64cn/LL	.
.	.	.	.	.	.	64d/JJJJ	.
(64DD/LLLL	.	(8f#\)	.	(8ff#\)	.	16.dd\LL	.
64AA/J	.	.	.	.	.	.	.
32D/JJJ)	.	.	.	.	.	.	.
16r	.	.	.	.	.	.	.
.	.	.	.	.	.	64cc#\LL	.
.	.	.	.	.	.	64dd\JJJJ	.
(64FF#/LLLL	.	(8f#\)	.	(8ff#\)	.	16.cc#\LL	.
64AA#/J	.	.	.	.	.	.	.
32C#/JJJ)	.	.	.	.	.	.	.
16r	.	.	.	.	.	.	.
.	.	.	.	.	.	64b\LL	.
.	.	.	.	.	.	64cc#\JJJJ	.
(64AA#/LLLL	.	16en\LL	.	16een\LL	.	16.ff#\LL	.
64C#/J	.	.	.	.	.	.	.
32F#/JJJ)	.	.	.	.	.	.	.
16r	.	16c#\JJ	.	16cc#\JJ	.	.	.
.	.	.	.	.	.	64ee\LL	.
.	.	.	.	.	.	64ff#\JJJJ	.
=250	=250	=250	=250	=250	=250	=250	=250
(64AAn/LLLL	p	8d#\)	p	8dd#\)	p	16.ff#\LL	p
64BB/J	.	.	.	.	.	.	.
32F#/JJJ)	.	.	.	.	.	.	.
16r	.	.	.	.	.	.	.
.	.	.	.	.	.	64ee#\LL	.
.	.	.	.	.	.	64ff#\JJJJ	.
(64GG#/LLLL	.	(16e\LL	.	(16ee\LL	.	16.bb\LL	.
64BB/J	.	.	.	.	.	.	.
32E/JJJ)	.	.	.	.	.	.	.
16r	.	16dn\JJ	.	16ddn\JJ	.	.	.
.	.	.	.	.	.	64aa\LL	.
.	.	.	.	.	.	64bb\JJJJ	.
(64AA/LLLL	.	16c#'/LL)	.	16cc#'/LL)	.	16.ccc#\LL	.
64C#/J	.	.	.	.	.	.	.
32E/JJJ)	.	.	.	.	.	.	.
16r	.	(16E/JJ	.	(16e/JJ	.	.	.
.	.	.	.	.	.	64bb\LL	.
.	.	.	.	.	.	64ccc#\JJJJ	.
(64DD/LLLL	.	16F#/LL	.	16f#/LL	.	(48eeen\LLL	.
64FF#/J	.	.	.	.	.	.	.
.	.	.	.	.	.	48ddd\	.
32BB/JJJ)	.	.	.	.	.	.	.
.	.	.	.	.	.	48cccn\	.
16r	.	16d/JJ	.	16dd/JJ	.	48eee\	.
.	.	.	.	.	.	48ddd\	.
.	.	.	.	.	.	48bb\JJJ)	.
=251	=251	=251	=251	=251	=251	=251	=251
8EE/	.	24G#/LL)	.	8b\)	.	(2bb\	.
.	.	(24E/	.	.	.	.	.
.	.	24G#/JJ	.	.	.	.	.
24r	.	24B/)	.	8r	.	.	.
(24EE/LL	.	24r	.	.	.	.	.
24GG#/JJ	.	24r	.	.	.	.	.
24BB/)	.	24r	.	8r	.	.	.
24r	.	(24e\LL	.	.	.	.	.
24r	.	24g#\JJ	.	.	.	.	.
8r	.	24b\)	.	24r	.	.	.
.	.	24r	.	(24ee\LL	.	.	.
.	.	24r	.	24gg#\JJ	.	.	.
=252	=252	=252	=252	=252	=252	=252	=252
8r	.	24r	.	24bb\)	.	16bb\LL)	.
.	.	(24E/LL	.	24r	.	.	.
.	.	.	.	.	.	(16ccc#\JJ	.
.	.	24A/JJ	.	24r	.	.	.
24r	.	24c#\)	.	8r	.	(4.ccc#\)	.
(24EE/LL	.	24r	.	.	.	.	.
24AA/JJ	.	24r	.	.	.	.	.
8Cn/)	.	24r	.	8r	.	.	.
.	.	(24e\LL	.	.	.	.	.
.	.	24a\JJ	.	.	.	.	.
8r	.	24cc#\)	.	24r	.	.	.
.	.	24r	.	(24ee\LL	.	.	.
.	.	24r	.	24aa\JJ)	.	.	.
=253	=253	=253	=253	=253	=253	=253	=253
8r	.	24r	.	24aa\	.	16ccc#\LL)	.
.	.	(24E/LL	.	24r	.	.	.
.	.	.	.	.	.	(16cccn\JJ	.
.	.	24A/JJ	.	24r	.	.	.
24r	.	8cn\)	.	8r	.	(4.ccc\)	.
(24EE/LL	.	.	.	.	.	.	.
24AA/JJ	.	.	.	.	.	.	.
8Cn/)	.	24r	.	8r	.	.	.
.	.	(24e\LL	.	.	.	.	.
.	.	24a\JJ	.	.	.	.	.
8r	.	8cc#\)	.	24r	.	.	.
.	.	.	.	(24ee\LL	.	.	.
.	.	.	.	24aa\JJ)	.	.	.
=254	=254	=254	=254	=254	=254	=254	=254
8r	.	24r	.	8aa\	.	8cccn\)	.
.	.	(24Fn/LL	.	.	.	.	.
.	.	24A/JJ	.	.	.	.	.
24r	.	8cn\)	.	8r	.	(4ccc\	.
(24FFn/LL	.	.	.	.	.	.	.
24AA/JJ	.	.	.	.	.	.	.
8Cn/)	.	24r	.	8r	.	.	.
.	.	(24fn\LL	.	.	.	.	.
.	.	24a\JJ	.	.	.	.	.
8r	.	8ccn\)	p	24r	.	32ccc\LLL)	p
.	.	.	.	.	.	32bb\JJJ	.
.	.	.	.	(24ffn\LL	p	.	.
.	.	.	.	.	.	48ccc\LLL	.
.	.	.	.	24aa\JJ)	.	48ddd\	.
.	.	.	.	.	.	&(48eee\JJJ&)	.
=255	=255	=255	=255	=255	=255	=255	=255
*k[b-]	*k[b-]	*k[b-]	*k[b-]	*k[b-]	*k[b-]	*k[b-]	*k[b-]
8fn\L	p	8a\L	p	8ccn\L 8aa\	p	8fffn\	p
8f\J	.	8a\J	.	8cc\J	.	(4ff\	.
8f\	.	8a\	.	8cc\	.	.	.
8r	.	8r	.	8r	.	16ggn\LL	.
.	.	.	.	.	.	16ffn\JJ)	.
=256	=256	=256	=256	=256	=256	=256	=256
8r	.	8r	.	8r	.	8ee\	.
8g\	.	8b-\	.	8cc\	.	(4ee\	.
8g\	.	8b-\	.	8cc\	.	.	.
8r	.	8r	.	8r	.	16ff\LL	.
.	.	.	.	.	.	16ee\JJ)	.
=257	=257	=257	=257	=257	=257	=257	=257
8r	.	8r	.	8r	.	8bb-\	.
8e\	.	8g\	.	8cc\	.	(4bb-\	.
8e\	.	8g\	.	8cc\	.	.	.
8r	.	8r	.	8r	.	16ccc\LL	.
.	.	.	.	.	.	16bb-\JJ)	.
=258	=258	=258	=258	=258	=258	=258	=258
8r	.	8r	.	8r	.	8aa\	.
8f\	.	8a\	.	8cc\	.	(4aa\	.
8f\	.	8a\	.	8cc\	.	.	.
8r	.	8r	.	8r	.	16bb-\LL	.
.	.	.	.	.	.	16aa\JJ)	.
=259	=259	=259	=259	=259	=259	=259	=259
8r	.	8r	.	8r	.	8aa\	.
8f\	.	8a\	.	8cc\	.	(4aa\	.
8f\	.	8a\	.	8cc\	.	.	.
8r	.	8r	.	8r	.	16bb-\LL	.
.	.	.	.	.	.	16aa\JJ)	.
=260	=260	=260	=260	=260	=260	=260	=260
8r	.	8r	.	8r	.	8aa\	.
8e\	.	8g\	.	8cc#\	.	(4aa\	.
8e\	.	8g\	.	8cc#\	.	.	.
8r	.	8r	.	8r	.	16bb-\LL	.
.	.	.	.	.	.	16aa\JJ)	.
=261	=261	=261	=261	=261	=261	=261	=261
8r	.	8r	.	8r	.	8aa\	.
8d\	.	8f\	.	8dd\	.	(4aa\	.
8d\	.	8f\	.	8dd\	.	.	.
8r	.	8r	.	8r	.	16bb-\LL	.
.	.	.	.	.	.	16aa\JJ)	.
=262	=262	=262	=262	=262	=262	=262	=262
8r	.	8r	.	8r	.	8aa\	.
8c#\	.	8e\	.	8ee\	.	(4aa\	.
8c#\	.	8e\	.	8ee\	.	.	.
8r	.	8r	.	8r	.	16bb-\LL	.
.	.	.	.	.	.	16aa\JJ)	.
=263	=263	=263	=263	=263	=263	=263	=263
8r	.	8r	.	8r	.	8aa\	.
8d\	.	8f\	.	8ff\	.	4aa\	.
8d\L	.	8f\L	.	8ff\L	.	.	.
8d#\J	f	8f#\J	f	8ff#\J	f	[8aa\	f
=264	=264	=264	=264	=264	=264	=264	=264
4d#\	.	4f#\	.	4ff#\	.	8aa\]	.
.	.	.	.	.	.	4aa\	.
4r	.	4r	.	4r	.	.	.
.	.	.	.	.	.	[8aa\	.
=265	=265	=265	=265	=265	=265	=265	=265
*k[f#c#g#]	*k[f#c#g#]	*k[f#c#g#]	*k[f#c#g#]	*k[f#c#g#]	*k[f#c#g#]	*k[f#c#g#]	*k[f#c#g#]
[2e\	p	[2bn\	p	[2dd\	p	8aa\L]	.
.	.	.	.	.	.	(24aa\L	.
.	.	.	.	.	.	24gg#\	.
.	.	.	.	.	.	24bbn\JJ	.
.	.	.	.	.	.	24ddd\LL	.
.	.	.	.	.	.	24bbn\	.
.	.	.	.	.	.	24ggn\	.
.	.	.	.	.	.	24ee\	.
.	.	.	.	.	.	24dd\	.
.	.	.	.	.	.	24bn\JJ)	.
=266	=266	=266	=266	=266	=266	=266	=266
*clefC4	*clefC4	*	*	*	*	*	*
8e\]	.	8b\]	.	8dd\]	.	(48g#/LLL	.
.	.	.	.	.	.	48e/	.
.	.	.	.	.	.	48d/	.
.	.	.	.	.	.	48B/	.
.	.	.	.	.	.	48G#/	.
.	.	.	.	.	.	48A/JJJ)	.
8r	.	8r	.	16e/ 16dd/	.	(48B/LLL	.
.	.	.	.	.	.	48c#/	.
.	.	.	.	.	.	48d/	.
.	.	.	.	16r	.	48e/	.
.	.	.	.	.	.	48f#/	.
.	.	.	.	.	.	48gn/JJJ)	.
8r	.	16E/ 16d/	.	8r	.	(64g#\LLLL	.
.	.	.	.	.	.	64a\	.
.	.	.	.	.	.	64b\	.
.	.	.	.	.	.	64cc#\	.
.	.	16r	.	.	.	64dd\	.
.	.	.	.	.	.	64ee\	.
.	.	.	.	.	.	64ff#\	.
.	.	.	.	.	.	64ggn\JJJJ	.
*clefF4	*clefF4	*	*	*	*	*	*
16DD/	.	16E/	.	16B/ 16e/	.	64gg#\LLLL	.
.	.	.	.	.	.	64aa\	.
.	.	.	.	.	.	64bb\	.
.	.	.	.	.	.	64ccc#\	.
16r	.	16r	.	16r	.	64ddd\	.
.	.	.	.	.	.	64eee\	.
.	.	.	.	.	.	64fff#\	.
.	.	.	.	.	.	64ggg#\JJJJ)	.
=267	=267	=267	=267	=267	=267	=267	=267
*	*	*	*	*^	*	*	*
(4CC#/	.	(4E/	.	4e/	(2A\	.	(8ggg#\	.
.	.	.	.	.	.	.	4aaa\	.
[4DD/)	.	[4F#/)	.	[4f#/	.	.	.	.
.	.	.	.	.	.	.	16fff#\LL	.
.	.	.	.	.	.	.	16ddd\JJ	.
*	*	*	*	*v	*v	*	*	*
=268	=268	=268	=268	=268	=268	=268	=268
8DD/L]	p	8F#/L]	p	8A#/L) 8f#/]	p	8ccc#'\L)	p
(8DD/J	.	(16B/L	.	(8f#/J	.	(16ddd\L	.
.	.	16d/JJ	.	.	.	16bb\JJ	.
8EE/L)	.	8c#'\L)	.	8e/L)	.	8aa'\L)	.
8EE/J	.	(16d\L	.	8e/J	.	(16bb\L	.
.	.	16B\JJ)	.	.	.	16gg#\JJ)	.
=269	=269	=269	=269	=269	=269	=269	=269
(4e\	.	(4C#/	.	(2An/	.	(8gg#\	.
.	.	.	.	.	.	4aa\	.
4f#\)	.	(4D/)	.	.	.	.	.
.	.	.	.	.	.	16ff#\LL	.
.	.	.	.	.	.	16ee\JJ	.
=270	=270	=270	=270	=270	=270	=270	=270
&(8f#\L&)	p	8D/L)	p	16A#/LL)	.	8cc#'\L)	p
.	.	.	.	(16A#/	p	.	.
(16f#\L	.	(8D/J	.	16B/	.	(16dd\L	.
16d\JJ	.	.	.	16f#/JJ)	.	16b\JJ	.
8c#'\L)	.	8E/L)	.	16r	.	8a'/L)	.
.	.	.	.	(16e/LL	.	.	.
(16d\L	.	8E/J	.	16B/	.	(16b/L	.
16B\JJ)	.	.	.	16d/JJ)	.	16g#/JJ)	.
=271	=271	=271	=271	=271	=271	=271	=271
8r	.	4r	.	8r	.	8r	.
(8D\	.	.	.	(16d/LL	.	(16ff#\LL	.
.	.	.	.	16B/JJ	.	16dd\JJ	.
8E\L)	.	8r	.	8An'/L)	.	8cc#'\L)	.
8E\J	.	(16G#/LL	.	(16B/L	.	(16dd\L	.
.	.	16e/JJ)	.	16G#/JJ)	.	16b\JJ)	.
=272	=272	=272	=272	=272	=272	=272	=272
2r	.	2r	.	2r	.	2r	.
=273	=273	=273	=273	=273	=273	=273	=273
8r	.	8r	.	8r	.	8r	.
8EE/	.	(16E/LL	.	(16G#/LL	.	(16dd\LL	.
.	.	16G#/JJ	.	16B/JJ	.	16b\JJ	.
8EE/L	.	8E'/L) 8A'/	.	8c#'/L)	.	8a'/L)	.
8EE/J	.	(16G#/L	.	(16B/L	.	(16b/L	.
.	.	16B/JJ)	.	16d/JJ)	.	16g#/JJ)	.
=274	=274	=274	=274	=274	=274	=274	=274
2r	.	4r	.	2r	.	2r	.
.	.	[4E/	.	.	.	.	.
=275	=275	=275	=275	=275	=275	=275	=275
2EE/	p	(8E/]	p	2B/	p	2g#/	p
.	.	4D/	.	.	.	.	.
.	.	8E/)	.	.	.	.	.
=276	=276	=276	=276	=276	=276	=276	=276
8AA/	.	8C#/	.	8c#/L	.	8a/	.
8r	.	8r	.	(16e/L	.	8r	.
.	.	.	.	16c#/JJ)	.	.	.
8EE/	.	8G#/	.	8r	.	8ee\	.
8r	.	8r	.	(16b/LL	.	8r	.
.	.	.	.	16e/JJ)	.	.	.
=277	=277	=277	=277	=277	=277	=277	=277
8AA/	.	(8Gn\L	.	8r	.	(4cc#\	.
*clefC4	*clefC4	*	*	*	*	*	*
(4a\	.	8gn\J	.	(16ee\LL	.	.	.
.	.	.	.	16a\JJ)	.	.	.
.	.	8fn\L	.	8r	.	8dd\L	.
8a\)	.	8d\J)	.	(16dd\LL	.	8ffn\J)	.
.	.	.	.	16gn\JJ)	.	.	.
=278	=278	=278	=278	=278	=278	=278	=278
8r	.	8r	.	8r	.	8r	.
8a\	.	8c#\	.	8e/	.	8aa\	.
8a\	.	8cc#\	.	8ee\	.	8aa\	.
8r;	.	8r;	.	8r;	.	8r;	.
==	==	==	==	==	==	==	==
*-	*-	*-	*-	*-	*-	*-	*-
!!!ENC: Craig Stuart Sapp
!!!END: 2004/09/09/
